**kern	**kern	**text	**text	**text	**kern	**text	**kern	**text	**text	**kern	**text	**kern	**text	**text	**text
*part6	*part5	*part5	*part5	*part5	*part4	*part4	*part3	*part3	*part3	*part2	*part2	*part1	*part1	*part1	*part1
*staff6	*staff5	*staff5	*staff5	*staff5	*staff4	*staff4	*staff3	*staff3	*staff3	*staff2	*staff2	*staff1	*staff1	*staff1	*staff1
*I"bass	*I"Chorus4	*	*	*	*I"Chorus3	*	*I"Chorus2	*	*	*I"Lead1&amp;Chorus1	*	*I"Lead Vocal	*	*	*
*	*	*	*	*	*	*	*	*	*	*	*	*I'Pno.	*	*	*
*clefF4	*clefGv2	*	*	*	*clefG2	*	*clefG2	*	*	*clefG2	*	*clefG2	*	*	*
*k[b-]	*k[b-]	*	*	*	*k[b-]	*	*k[b-]	*	*	*k[b-]	*	*k[b-]	*	*	*
*M4/4	*M4/4	*	*	*	*M4/4	*	*M4/4	*	*	*M4/4	*	*M4/4	*	*	*
=1	=1	=1	=1	=1	=1	=1	=1	=1	=1	=1	=1	=1	=1	=1	=1
1r	1r	.	.	.	1r	.	1r	.	.	2r	.	2r	.	.	.
*MM125	*MM125	*	*	*	*MM125	*	*MM125	*	*	*MM125	*	*MM125	*	*	*
.	.	.	.	.	.	.	.	.	.	4d	てん	4d	てん	.	.
.	.	.	.	.	.	.	.	.	.	4f	じょう	4f	じょう	.	.
=2	=2	=2	=2	=2	=2	=2	=2	=2	=2	=2	=2	=2	=2	=2	=2
2BB-	8r	.	.	.	8r	.	8r	.	.	4a	てん	4a	てん	.	.
.	8d	.	.	.	8f	.	8a	t	.	.	.	.	.	.	.
.	16r	.	.	.	16r	.	16r	.	.	8.aL	げ	8.aL	げ	.	.
.	16d	.	.	.	16f	.	16a	t	.	.	.	.	.	.	.
.	16r	.	.	.	16r	.	16r	.	.	.	.	.	.	.	.
.	16c#X	.	.	.	16e	.	16g	t	.	16aJk	つ	16aJk	つ	.	.
4.AA	16r	.	.	.	16r	.	16r	.	.	8aL	な	8aL	な	.	.
.	8c#	.	.	.	8e	.	8g	t	.	.	.	.	.	.	.
.	.	.	.	.	.	.	.	.	.	8f	ぐ	8f	ぐ	.	.
.	16r	.	.	.	16r	.	16r	.	.	.	.	.	.	.	.
.	4c#	.	.	.	4e	.	4g	t	.	8g	は	8g	は	.	.
8AA	.	.	.	.	.	.	.	.	.	8dJ	な	8dJ	な	.	.
=3	=3	=3	=3	=3	=3	=3	=3	=3	=3	=3	=3	=3	=3	=3	=3
2D	8r	.	.	.	8r	.	8r	.	.	4f	び	4f	び	.	.
.	8c	.	.	.	8e	.	8a	t	.	.	.	.	.	.	.
.	16r	.	.	.	16r	.	16r	.	.	8dL	か	8dL	か	.	.
.	16c	.	.	.	16e	.	16a	t	.	.	.	.	.	.	.
.	16r	.	.	.	16r	.	16r	.	.	[8cJ	な	[8cJ	な	.	.
.	16c	.	.	.	16e-X	.	16g	t	.	.	.	.	.	.	.
4.FF	16r	.	.	.	16r	.	16r	.	.	4c]	.	4c]	.	.	.
.	8c	.	.	.	8e-	.	8g	t	.	.	.	.	.	.	.
.	16r	.	.	.	16r	.	16r	.	.	.	.	.	.	.	.
.	4c	.	.	.	4e-	.	4g	t	.	8dL	と	8dL	と	.	.
8FF	.	.	.	.	.	.	.	.	.	8fJ	こ	8fJ	こ	.	.
=4	=4	=4	=4	=4	=4	=4	=4	=4	=4	=4	=4	=4	=4	=4	=4
2BB-	8r	.	.	.	8r	.	8r	.	.	4cc	しえ	4cc	しえ	.	.
.	8d	.	.	.	8f	.	8a	t	.	.	.	.	.	.	.
.	16r	.	.	.	16r	.	16r	.	.	4cc	と	4cc	と	.	.
.	16d	.	.	.	16f	.	16a	t	.	.	.	.	.	.	.
.	16r	.	.	.	16r	.	16r	.	.	.	.	.	.	.	.
.	16d-X	.	.	.	16f	.	16a	t	.	.	.	.	.	.	.
4.AA	16r	.	.	.	16r	.	16r	.	.	8ccL	せ	8ccL	せ	.	.
.	8d-	.	.	.	8f	.	8g	t	.	.	.	.	.	.	.
.	.	.	.	.	.	.	.	.	.	8a-X	つ	8a-X	つ	.	.
.	16r	.	.	.	16r	.	16r	.	.	.	.	.	.	.	.
.	4d-	.	.	.	4f	.	4g	t	.	8g	な	8g	な	.	.
8AA	.	.	.	.	.	.	.	.	.	[8fJ	の	[8fJ	の	.	.
=5	=5	=5	=5	=5	=5	=5	=5	=5	=5	=5	=5	=5	=5	=5	=5
2D	8r	.	.	.	8r	.	8r	.	.	8fL]	.	8fL]	.	.	.
.	8c	.	.	.	8e	.	8e	t	.	8gJ	で	8gJ	で	.	.
.	16r	.	.	.	16r	.	16r	.	.	2a	あひ	2a	あひ	.	.
.	16c	.	.	.	16e	.	16a	t	.	.	.	.	.	.	.
.	16r	.	.	.	16r	.	16r	.	.	.	.	.	.	.	.
.	16d#X	.	.	.	16a	.	16cc	t	.	.	.	.	.	.	.
2F	16r	.	.	.	16r	.	16r	.	.	.	.	.	.	.	.
.	8d#	.	.	.	8a	.	8cc	t	.	.	.	.	.	.	.
.	16r	.	.	.	16r	.	16r	.	.	.	.	.	.	.	.
.	4d#	.	.	.	4a	.	4cc	t	.	4f	ah	4f	ah	.	.
=6	=6	=6	=6	=6	=6	=6	=6	=6	=6	=6	=6	=6	=6	=6	=6
2BB-	8r	.	.	.	8r	.	8r	.	.	8r	.	8r	.	.	.
.	16ALL	わ	.	.	8f	.	8a	t	.	8d	.	16ALL	わ	.	.
.	[16dJJ	す	.	.	.	.	.	.	.	.	.	[16dJJ	す	.	.
.	16dKL]	.	.	.	8.fL	.	8.aL	t	.	8.dL	.	16dKL]	.	.	.
.	8e	る	.	.	.	.	.	.	.	.	.	8e	る	.	.
.	[16fJk	ま	.	.	16fJk	.	16aJk	t	.	16dJk	.	[16fJk	ま	.	.
2AA	16fLL]	.	.	.	16r	.	16r	.	.	16r	.	16fLL]	.	.	.
.	16g	じ	.	.	16e	.	16g	t	.	16d-X	.	16g	じ	.	.
.	16A	わ	.	.	16r	.	16r	.	.	16r	.	16A	わ	.	.
.	[16dJJ	す	.	.	[16e	.	[16g	t	.	[16d-	.	[16dJJ	す	.	.
.	16dKL]	.	.	.	16e]	.	16g]	t	.	16d-]	.	16dKL]	.	.	.
.	8e	る	.	.	16r	.	16r	.	.	16r	.	8e	る	.	.
.	.	.	.	.	16e	.	16g	t	.	16d-	.	.	.	.	.
.	[16fJk	ま	.	.	16r	.	16r	.	.	16r	.	[16fJk	ま	.	.
=7	=7	=7	=7	=7	=7	=7	=7	=7	=7	=7	=7	=7	=7	=7	=7
2D	16fLL]	.	.	.	16r	.	16r	.	.	16r	.	16fLL]	.	.	.
.	16g	じ	.	.	8.e	.	8.a	t	.	8.c	.	16g	じ	.	.
.	16A	わ	.	.	.	.	.	.	.	.	.	16A	わ	.	.
.	[16dJJ	す	.	.	.	.	.	.	.	.	.	[16dJJ	す	.	.
.	16dKL]	.	.	.	16e	.	16a	t	.	16c	.	16dKL]	.	.	.
.	8e	る	.	.	16r	.	16r	.	.	16r	.	8e	る	.	.
.	.	.	.	.	8e	.	8a	t	.	8c	.	.	.	.	.
.	[16fJk	ま	.	.	.	.	.	.	.	.	.	[16fJk	ま	.	.
2FF	16fLL]	.	.	.	8r	.	8r	.	.	4r	.	16fLL]	.	.	.
.	16gJJ	じ	.	.	.	.	.	.	.	.	.	16gJJ	じ	.	.
.	8r	.	.	.	8f	.	8a	t	.	.	.	8r	.	.	.
.	8gL	わ	.	.	16r	.	16r	.	.	8b-L	わ	8b-L	わ	.	.
.	.	.	.	.	8.f	.	8.a	t	.	.	.	.	.	.	.
.	[8aJ	.	.	.	.	.	.	.	.	[8ccJ	.	[8ccJ	.	.	.
=8	=8	=8	=8	=8	=8	=8	=8	=8	=8	=8	=8	=8	=8	=8	=8
2BB-	8aL]	.	.	.	4.f	.	4.a	tu	.	8ccL]	.	8ccL]	.	.	.
.	8b-	れ	.	.	.	.	.	.	.	8dd	れ	8dd	れ	.	.
.	8f	ら	.	.	.	.	.	.	.	8a	ら	8a	ら	.	.
.	8aJ	の	.	.	8f	.	8a	t	.	8ccJ	の	8ccJ	の	.	.
4.AA	4e	な	.	.	16r	.	16r	.	.	4g	な	4g	な	.	.
.	.	.	.	.	16f	.	16g	t	.	.	.	.	.	.	.
.	.	.	.	.	16r	.	16r	.	.	.	.	.	.	.	.
.	.	.	.	.	[16f	.	[16g	tu	.	.	.	.	.	.	.
.	8fL	つ	.	.	8fL]	.	8gL]	.	.	8aL	つ	8aL	つ	.	.
16AALL	[8dJ	を	.	.	16fL	.	16gL	tu	.	[8fJ	を	[8fJ	を	.	.
16AAJJ	.	.	.	.	16fJJ	.	16gJJ	lu	.	.	.	.	.	.	.
=9	=9	=9	=9	=9	=9	=9	=9	=9	=9	=9	=9	=9	=9	=9	=9
12DL	4d]	.	.	.	12eL	da	12aL	da	.	4f]	.	4f]	.	.	.
12D	.	.	.	.	12e	na	12a	na	.	.	.	.	.	.	.
12DJ	.	.	.	.	12eJ	na	12aJ	na	.	.	.	.	.	.	.
8r	4r	.	.	.	4r	.	4r	.	.	4r	.	4r	.	.	.
8AA	.	.	.	.	.	.	.	.	.	.	.	.	.	.	.
8CL	2r	.	.	.	2r	.	2r	.	.	2r	.	2r	.	.	.
8AAJ	.	.	.	.	.	.	.	.	.	.	.	.	.	.	.
4F	.	.	.	.	.	.	.	.	.	.	.	.	.	.	.
=10||	=10||	=10||	=10||	=10||	=10||	=10||	=10||	=10||	=10||	=10||	=10||	=10||	=10||	=10||	=10||
4.GG	1B-	fu	.	.	1d	fu	1r	.	.	1f	fu	1r	.	.	.
8GG	.	.	.	.	.	.	.	.	.	.	.	.	.	.	.
4.GG	.	.	.	.	.	.	.	.	.	.	.	.	.	.	.
8BB-	.	.	.	.	.	.	.	.	.	.	.	.	.	.	.
=11	=11	=11	=11	=11	=11	=11	=11	=11	=11	=11	=11	=11	=11	=11	=11
4.C-X	1Bn	.	.	.	1d	.	6r	.	.	1f#X	.	1r	.	.	.
.	.	.	.	.	.	.	6g-X	lu	.	.	.	.	.	.	.
.	.	.	.	.	.	.	6e	lu	.	.	.	.	.	.	.
[8C-	.	.	.	.	.	.	.	.	.	.	.	.	.	.	.
8C-L]	.	.	.	.	.	.	6d	lu	.	.	.	.	.	.	.
8GG-X	.	.	.	.	.	.	.	.	.	.	.	.	.	.	.
.	.	.	.	.	.	.	6e	lu	.	.	.	.	.	.	.
8C-	.	.	.	.	.	.	.	.	.	.	.	.	.	.	.
.	.	.	.	.	.	.	6g-	lu	.	.	.	.	.	.	.
8BB-J	.	.	.	.	.	.	.	.	.	.	.	.	.	.	.
=12	=12	=12	=12	=12	=12	=12	=12	=12	=12	=12	=12	=12	=12	=12	=12
4.BB-	1B-	.	.	.	1d	.	4.r	.	.	1f	.	1r	.	.	.
8BB-	.	.	.	.	.	.	8e	lu	.	.	.	.	.	.	.
2BB-	.	.	.	.	.	.	4d	lu	.	.	.	.	.	.	.
.	.	.	.	.	.	.	8r	.	.	.	.	.	.	.	.
.	.	.	.	.	.	.	8d	lu	.	.	.	.	.	.	.
=13	=13	=13	=13	=13	=13	=13	=13	=13	=13	=13	=13	=13	=13	=13	=13
4.D	1A	.	.	.	1d	.	4d-X	lu	.	1f#X	.	1r	.	.	.
.	.	.	.	.	.	.	4r	.	.	.	.	.	.	.	.
[8E	.	.	.	.	.	.	.	.	.	.	.	.	.	.	.
8EL]	.	.	.	.	.	.	6r	.	.	.	.	.	.	.	.
8D	.	.	.	.	.	.	.	.	.	.	.	.	.	.	.
.	.	.	.	.	.	.	6e	lu	.	.	.	.	.	.	.
8AA	.	.	.	.	.	.	.	.	.	.	.	.	.	.	.
.	.	.	.	.	.	.	6dn	lu	.	.	.	.	.	.	.
8EEJ	.	.	.	.	.	.	.	.	.	.	.	.	.	.	.
=14	=14	=14	=14	=14	=14	=14	=14	=14	=14	=14	=14	=14	=14	=14	=14
4.GG	1B-	.	.	.	1d	.	12fL	lu	.	1f	.	1r	.	.	.
.	.	.	.	.	.	.	12e	lu	.	.	.	.	.	.	.
.	.	.	.	.	.	.	12dJ	lu	.	.	.	.	.	.	.
.	.	.	.	.	.	.	12r	.	.	.	.	.	.	.	.
.	.	.	.	.	.	.	12r	.	.	.	.	.	.	.	.
8GG	.	.	.	.	.	.	.	.	.	.	.	.	.	.	.
.	.	.	.	.	.	.	12a	lu	.	.	.	.	.	.	.
4.GG	.	.	.	.	.	.	12gL	lu	.	.	.	.	.	.	.
.	.	.	.	.	.	.	12g-X	lu	.	.	.	.	.	.	.
.	.	.	.	.	.	.	12dJ	lu	.	.	.	.	.	.	.
.	.	.	.	.	.	.	12r	.	.	.	.	.	.	.	.
.	.	.	.	.	.	.	12ccL	lu	.	.	.	.	.	.	.
8GG	.	.	.	.	.	.	.	.	.	.	.	.	.	.	.
.	.	.	.	.	.	.	12b-J	lu	.	.	.	.	.	.	.
=15	=15	=15	=15	=15	=15	=15	=15	=15	=15	=15	=15	=15	=15	=15	=15
4.C-X	1Bn	.	.	.	1d	.	12aL	lu	.	1f#X	.	1r	.	.	.
.	.	.	.	.	.	.	12g-X	lu	.	.	.	.	.	.	.
.	.	.	.	.	.	.	12dJ	lu	.	.	.	.	.	.	.
.	.	.	.	.	.	.	4r	.	.	.	.	.	.	.	.
[8C-	.	.	.	.	.	.	.	.	.	.	.	.	.	.	.
8C-L]	.	.	.	.	.	.	8r	.	.	.	.	.	.	.	.
8GG-X	.	.	.	.	.	.	[8g-	lu	.	.	.	.	.	.	.
8C-	.	.	.	.	.	.	16g-KL]	.	.	.	.	.	.	.	.
.	.	.	.	.	.	.	8.aJ	lu	.	.	.	.	.	.	.
8BB-J	.	.	.	.	.	.	.	.	.	.	.	.	.	.	.
=16	=16	=16	=16	=16	=16	=16	=16	=16	=16	=16	=16	=16	=16	=16	=16
4.BB-	1B-	.	.	.	1d	.	4ee	lu	.	1f	.	1r	.	.	.
.	.	.	.	.	.	.	8r	.	.	.	.	.	.	.	.
8BB-	.	.	.	.	.	.	8ee	lu	.	.	.	.	.	.	.
2BB-	.	.	.	.	.	.	4dd	lu	.	.	.	.	.	.	.
.	.	.	.	.	.	.	8r	.	.	.	.	.	.	.	.
.	.	.	.	.	.	.	8dd	lu	.	.	.	.	.	.	.
=17	=17	=17	=17	=17	=17	=17	=17	=17	=17	=17	=17	=17	=17	=17	=17
12DL	12c#XL	da	.	.	12eL	da	4dd-X	lu	.	12aL	.	2r	.	.	.
12D	12c#	na	.	.	12e	na	.	.	.	12a	.	.	.	.	.
12DJ	12c#J	na	.	.	12eJ	na	.	.	.	12aJ	.	.	.	.	.
4r	4r	.	.	.	4r	.	4r	.	.	4r	.	.	.	.	.
2D	2cn	fu	.	.	2f#X	fu	2a	fu	.	8r	.	8r	.	.	.
.	.	.	.	.	.	.	.	.	.	8dL	ば	8dL	ば	.	.
.	.	.	.	.	.	.	.	.	.	8a	ち	8a	ち	.	.
.	.	.	.	.	.	.	.	.	.	[8dJ	が	[8dJ	が	.	.
=18||	=18||	=18||	=18||	=18||	=18||	=18||	=18||	=18||	=18||	=18||	=18||	=18||	=18||	=18||	=18||
4.GG	1B-	fu	.	.	1d	fu	1f	fu	.	8dL]	.	8dL]	.	.	.
.	.	.	.	.	.	.	.	.	.	8cJ	い	8cJ	い	.	.
.	.	.	.	.	.	.	.	.	.	4d	に	4d	に	.	.
8GG	.	.	.	.	.	.	.	.	.	.	.	.	.	.	.
4.GG	.	.	.	.	.	.	.	.	.	8dL	ひ	8dL	ひ	.	.
.	.	.	.	.	.	.	.	.	.	8dJ	え	8dJ	え	.	.
.	.	.	.	.	.	.	.	.	.	4d	きっ	4d	きっ	.	.
8BB-	.	.	.	.	.	.	.	.	.	.	.	.	.	.	.
=19	=19	=19	=19	=19	=19	=19	=19	=19	=19	=19	=19	=19	=19	=19	=19
4.C-X	1Bn	.	.	.	1d	.	1f#X	.	.	8dL	た	8dL	た	.	.
.	.	.	.	.	.	.	.	.	.	8c	か	8c	か	.	.
.	.	.	.	.	.	.	.	.	.	8d	.	8d	.	.	.
[8C-	.	.	.	.	.	.	.	.	.	8dJ	ら	8dJ	ら	.	.
8C-L]	.	.	.	.	.	.	.	.	.	8d	だ	8d	だ	.	.
8GG-X	.	.	.	.	.	.	.	.	.	4c	を	4c	を	.	.
8C-	.	.	.	.	.	.	.	.	.	.	.	.	.	.	.
8BB-J	.	.	.	.	.	.	.	.	.	16dLL	ひ	16dLL	ひ	.	.
.	.	.	.	.	.	.	.	.	.	[16dJJ	と	[16dJJ	と	.	.
=20	=20	=20	=20	=20	=20	=20	=20	=20	=20	=20	=20	=20	=20	=20	=20
4.BB-	1B-	.	.	.	1d	.	1f	fu	.	8dL]	.	8dL]	.	.	.
.	.	.	.	.	.	.	.	.	.	8cJ	い	8cJ	い	.	.
.	.	.	.	.	.	.	.	.	.	4d	き	4d	き	.	.
8BB-	.	.	.	.	.	.	.	.	.	.	.	.	.	.	.
2BB-	.	.	.	.	.	.	.	.	.	8dL	れ	8dL	れ	.	.
.	.	.	.	.	.	.	.	.	.	8c	に	8c	に	.	.
.	.	.	.	.	.	.	.	.	.	8f	は	8f	は	.	.
.	.	.	.	.	.	.	.	.	.	[8eJ	ふつ	[8eJ	ふつ	.	.
=21	=21	=21	=21	=21	=21	=21	=21	=21	=21	=21	=21	=21	=21	=21	=21
4.D	1A	.	.	.	1d	.	1f#X	.	.	4.e]	.	4.e]	.	.	.
[8E	.	.	.	.	.	.	.	.	.	8d	て	8d	て	.	.
8EL]	.	.	.	.	.	.	.	.	.	8r	.	8r	.	.	.
8D	.	.	.	.	.	.	.	.	.	8dL	な	8dL	な	.	.
8AA	.	.	.	.	.	.	.	.	.	8a	が	8a	が	.	.
8EEJ	.	.	.	.	.	.	.	.	.	[8dJ	し	[8dJ	し	.	.
=22	=22	=22	=22	=22	=22	=22	=22	=22	=22	=22	=22	=22	=22	=22	=22
4.GG	1B-	.	.	.	1d	.	1f	fu	.	4d]	.	4d]	.	.	.
.	.	.	.	.	.	.	.	.	.	4d	な	4d	な	.	.
8GG	.	.	.	.	.	.	.	.	.	.	.	.	.	.	.
2GG	.	.	.	.	.	.	.	.	.	4d	が	4d	が	.	.
.	.	.	.	.	.	.	.	.	.	4d	さ	4d	さ	.	.
=23	=23	=23	=23	=23	=23	=23	=23	=23	=23	=23	=23	=23	=23	=23	=23
4.C-X	1Bn	.	.	.	1d	.	1f#X	.	.	8.dL	れ	8.dL	れ	.	.
.	.	.	.	.	.	.	.	.	.	[16dJk	お	[16dJk	お	.	.
.	.	.	.	.	.	.	.	.	.	8dL]	.	8dL]	.	.	.
[8C-	.	.	.	.	.	.	.	.	.	8dJ	も	8dJ	も	.	.
8C-L]	.	.	.	.	.	.	.	.	.	8dL	え	8dL	え	.	.
8GG-X	.	.	.	.	.	.	.	.	.	8cJ	ば	8cJ	ば	.	.
8C-	.	.	.	.	.	.	.	.	.	8r	.	8r	.	.	.
8BB-J	.	.	.	.	.	.	.	.	.	[8d	とお	[8d	とお	.	.
=24	=24	=24	=24	=24	=24	=24	=24	=24	=24	=24	=24	=24	=24	=24	=24
4.BB-	1B-	.	.	.	1c	.	1f	fu	.	8.d]	.	8.d]	.	.	.
.	.	.	.	.	.	.	.	.	.	16c	く	16c	く	.	.
.	.	.	.	.	.	.	.	.	.	8dL	へ	8dL	へ	.	.
8BB-	.	.	.	.	.	.	.	.	.	8dJ	き	8dJ	き	.	.
2BB-	.	.	.	.	.	.	.	.	.	8dL	た	8dL	た	.	.
.	.	.	.	.	.	.	.	.	.	8f	も	8f	も	.	.
.	.	.	.	.	.	.	.	.	.	8A	の	8A	の	.	.
.	.	.	.	.	.	.	.	.	.	[8eJ	だ	[8eJ	だ	.	.
=25	=25	=25	=25	=25	=25	=25	=25	=25	=25	=25	=25	=25	=25	=25	=25
12DL	2c#X	.	.	.	2e	.	2a	.	.	2e]	.	2e]	.	.	.
12D	.	.	.	.	.	.	.	.	.	.	.	.	.	.	.
12DJ	.	.	.	.	.	.	.	.	.	.	.	.	.	.	.
4r	.	.	.	.	.	.	.	.	.	.	.	.	.	.	.
2D	8r	.	.	.	8r	.	8r	.	.	2r	.	8r	.	.	.
.	[8f	.	.	.	[8d	.	[8a	じん	.	.	.	[8a	じん	.	.
.	16fKL]	.	.	.	16dKL]	.	16aKL]	.	.	.	.	16aKL]	.	.	.
.	8.fJ	.	.	.	8.dJ	.	8.aJ	せい	.	.	.	8.aJ	せい	.	.
=26||	=26||	=26||	=26||	=26||	=26||	=26||	=26||	=26||	=26||	=26||	=26||	=26||	=26||	=26||	=26||
4C-X	8.fL	.	.	.	8.dL	.	8.aL	なん	.	1r	.	8.aL	なん	.	.
.	16gJk	.	.	.	16fJk	.	16aJk	て	.	.	.	16aJk	て	.	.
8r	4r	.	.	.	4r	.	4r	.	.	.	.	4r	.	.	.
8C-	.	.	.	.	.	.	.	.	.	.	.	.	.	.	.
4C-	8r	.	.	.	8r	.	8r	.	.	.	.	8r	.	.	.
.	[8f	.	.	.	[8d	.	[8a	あく	.	.	.	[8a	あく	.	.
4r	16fKL]	.	.	.	16dKL]	.	16aKL]	.	.	.	.	16aKL]	.	.	.
.	8.fJ	.	.	.	8.dJ	.	8.aJ	け	.	.	.	8.aJ	け	.	.
=27	=27	=27	=27	=27	=27	=27	=27	=27	=27	=27	=27	=27	=27	=27	=27
4BB-	8.fL	.	.	.	8.d-XL	.	8.gL	ない	.	1r	.	8.gL	ない	.	.
.	16gJk	.	.	.	16fJk	.	16b-Jk	ね	.	.	.	16b-Jk	ね	.	.
8r	4r	.	.	.	4r	.	4r	.	.	.	.	4r	.	.	.
8BB-	.	.	.	.	.	.	.	.	.	.	.	.	.	.	.
4BB-	8r	.	.	.	8r	.	8r	.	.	.	.	8r	.	.	.
.	[8d	.	.	.	[8G	.	[8f	ま	.	.	.	[8f	ま	.	.
4r	16dKL]	.	.	.	16GKL]	.	16fKL]	.	.	.	.	16fKL]	.	.	.
.	8.fJ	.	.	.	8.cJ	.	8.b-J	して	.	.	.	8.b-J	して	.	.
=28	=28	=28	=28	=28	=28	=28	=28	=28	=28	=28	=28	=28	=28	=28	=28
4AA	8aL	.	.	.	8eL	.	8ccL	わ	.	1r	.	8ccL	わ	.	.
.	8b-	.	.	.	8e	.	8dd	か	.	.	.	8dd	か	.	.
8r	8a	.	.	.	8e	.	8cc	さ	.	.	.	8cc	さ	.	.
8AA	8b-J	.	.	.	8eJ	.	8ddJ	は	.	.	.	8ddJ	は	.	.
4AA	8.aL	.	.	.	8.eL	.	8.ccL	あっ	.	.	.	8.ccL	あっ	.	.
.	[16dJk	.	.	.	[16AJk	.	[16f#XJk	ちゅう	.	.	.	[16f#XJk	ちゅう	.	.
4r	8dL]	.	.	.	8AL]	.	8f#L]	.	.	.	.	8f#L]	.	.	.
.	[8dJ	.	.	.	[8A-XJ	.	[8fnJ	ま	.	.	.	[8fnJ	ま	.	.
=29	=29	=29	=29	=29	=29	=29	=29	=29	=29	=29	=29	=29	=29	=29	=29
4AA-X	2d]	.	.	.	2A-]	.	2f]	.	.	1r	.	2f]	.	.	.
8r	.	.	.	.	.	.	.	.	.	.	.	.	.	.	.
16AA-LL	.	.	.	.	.	.	.	.	.	.	.	.	.	.	.
16AA-JJ	.	.	.	.	.	.	.	.	.	.	.	.	.	.	.
8DL	2r	.	.	.	2r	.	2r	.	.	.	.	2r	.	.	.
8DJ	.	.	.	.	.	.	.	.	.	.	.	.	.	.	.
4AA-	.	.	.	.	.	.	.	.	.	.	.	.	.	.	.
=30	=30	=30	=30	=30	=30	=30	=30	=30	=30	=30	=30	=30	=30	=30	=30
4GG	8r	.	.	.	2d	.	2f	fu	.	8r	.	8r	.	.	.
.	8B-	こ	.	.	.	.	.	.	.	8d	こ	8d	こ	.	.
8r	8b-	よい	.	.	.	.	.	.	.	8dd	よい	8dd	よい	.	.
8GG	8b-	.	.	.	.	.	.	.	.	8dd	.	8dd	.	.	.
4GG	4f	ぜん	.	.	8r	.	8r	.	.	4a	ぜん	4a	ぜん	.	.
.	.	.	.	.	4d	.	4f	tu	.	.	.	.	.	.	.
8r	4a	いん	.	.	.	.	.	.	.	4cc	いん	4cc	いん	.	.
16GGLL	.	.	.	.	8d'	.	8f'	t	.	.	.	.	.	.	.
16GGJJ	.	.	.	.	.	.	.	.	.	.	.	.	.	.	.
=31	=31	=31	=31	=31	=31	=31	=31	=31	=31	=31	=31	=31	=31	=31	=31
4AA	8.eL	が	.	.	4r	.	4r	.	.	8.gL	が	8.gL	が	.	.
.	16dJk	さ	.	.	.	.	.	.	.	16fJk	さ	16fJk	さ	.	.
8r	8.d-XL	き	.	.	4d-X	.	4f	fu	.	8.eL	き	8.eL	き	.	.
16AALL	.	.	.	.	.	.	.	.	.	.	.	.	.	.	.
16AAJJ	16dnJk	が	.	.	.	.	.	.	.	16fJk	が	16fJk	が	.	.
4AA	4e	け	.	.	4A	.	4d-X	.	.	4g	け	4g	け	.	.
4D-X	4f	いち	.	.	4d-	.	4f	.	.	4a	いち	4a	いち	.	.
=32	=32	=32	=32	=32	=32	=32	=32	=32	=32	=32	=32	=32	=32	=32	=32
4D	2.f	まい	.	.	1d	.	1e	wa	.	2.a	まい	2.a	まい	.	.
8r	.	.	.	.	.	.	.	.	.	.	.	.	.	.	.
8D	.	.	.	.	.	.	.	.	.	.	.	.	.	.	.
4D	.	.	.	.	.	.	.	.	.	.	.	.	.	.	.
8r	8aL	め	.	.	.	.	.	.	.	8ccL	め	8ccL	め	.	.
16DLL	[8e-XJ	よ	.	.	.	.	.	.	.	[8gJ	よ	[8gJ	よ	.	.
16DJJ	.	.	.	.	.	.	.	.	.	.	.	.	.	.	.
=33	=33	=33	=33	=33	=33	=33	=33	=33	=33	=33	=33	=33	=33	=33	=33
12CL	4e-]	.	.	.	12B-L	.	12gL	da	.	4g]	.	4g]	.	.	.
12C	.	.	.	.	12B-	.	12g	na	.	.	.	.	.	.	.
12CJ	.	.	.	.	12B-J	.	12gJ	na	.	.	.	.	.	.	.
4r	4r	.	.	.	4r	.	4r	.	.	4r	.	4r	.	.	.
2r	2r	.	.	.	2r	.	2r	.	.	4d	みん	4d	みん	.	.
.	.	.	.	.	.	.	.	.	.	4f	な	4f	な	.	.
=34||	=34||	=34||	=34||	=34||	=34||	=34||	=34||	=34||	=34||	=34||	=34||	=34||	=34||	=34||	=34||
4BB-	4r	.	.	.	4r	.	4r	.	.	4a	めい	4a	めい	.	.
8r	4d	.	.	.	4f	.	4b-	ao-	.	8gL	め	8gL	め	.	.
8BB-	.	.	.	.	.	.	.	.	.	8aJ	い	8aJ	い	.	.
4AA	4d-X	.	.	.	4e	.	4a	-uh	.	8aL	と	8aL	と	.	.
.	.	.	.	.	.	.	.	.	.	8f	り	8f	り	.	.
4D-X	4A	.	.	.	4d-X	.	4e	.	.	8g	ど	8g	ど	.	.
.	.	.	.	.	.	.	.	.	.	8dJ	り	8dJ	り	.	.
=35	=35	=35	=35	=35	=35	=35	=35	=35	=35	=35	=35	=35	=35	=35	=35
4D	4e	.	.	.	4a	.	4cc	(f)	.	4f	の	4f	の	.	.
8r	4d	.	.	.	4f	.	4a	.	.	8dL	い	8dL	い	.	.
8D	.	.	.	.	.	.	.	.	.	[8cJ	しょうー	[8cJ	しょうー	.	.
4F	4c	.	.	.	4e-X	.	4g	.	.	8c]	.	8c]	.	.	.
.	.	.	.	.	.	.	.	.	.	8r	.	8r	.	.	.
4C	4A	.	.	.	4c	.	4f	.	.	8dL	ほ	8dL	ほ	.	.
.	.	.	.	.	.	.	.	.	.	8fJ	ん	8fJ	ん	.	.
=36	=36	=36	=36	=36	=36	=36	=36	=36	=36	=36	=36	=36	=36	=36	=36
4BB-	4r	.	.	.	4r	.	4r	.	.	16cc	ぼ	16cc	ぼ	.	.
.	.	.	.	.	.	.	.	.	.	8.cc	う	8.cc	う	.	.
8r	4d	.	.	.	4f	.	[4a	fu	.	8.cc	な	8.cc	な	.	.
8BB-	.	.	.	.	.	.	.	.	.	.	.	.	.	.	.
.	.	.	.	.	.	.	.	.	.	16cc	い	16cc	い	.	.
4AA	2d-X	.	.	.	2e	.	4a]	.	.	8ccL	の	8ccL	の	.	.
.	.	.	.	.	.	.	.	.	.	8a-X	ち	8a-X	ち	.	.
4D-X	.	.	.	.	.	.	4g	.	.	8g	を	8g	を	.	.
.	.	.	.	.	.	.	.	.	.	[8fJ	おほう	[8fJ	おほう	.	.
=37	=37	=37	=37	=37	=37	=37	=37	=37	=37	=37	=37	=37	=37	=37	=37
4D	2c	.	.	.	2d	.	2f	.	.	8fL]	.	8fL]	.	.	.
.	.	.	.	.	.	.	.	.	.	8gJ	け	8gJ	け	.	.
8r	.	.	.	.	.	.	.	.	.	8a	しょう	8a	しょう	.	.
8D	.	.	.	.	.	.	.	.	.	16g#XLL	.	16g#XLL	.	.	.
.	.	.	.	.	.	.	.	.	.	[16aJJ	.	[16aJJ	.	.	.
8FL	16r	.	.	.	16r	.	16r	.	.	8a]	.	8a]	.	.	.
.	16c	.	.	.	16f	.	16a	pa	.	.	.	.	.	.	.
8F	16r	.	.	.	16r	.	16r	.	.	8r	.	8r	.	.	.
.	16c	.	.	.	16f	.	16a	pa	.	.	.	.	.	.	.
8F	16r	.	.	.	16r	.	16r	.	.	[4f	ah	[4f	ah	.	.
.	16e-X	.	.	.	16g	.	16cc	pa	.	.	.	.	.	.	.
8FJ	16r	.	.	.	16r	.	16r	.	.	.	.	.	.	.	.
.	16e-	.	.	.	16g	.	16cc	pa	.	.	.	.	.	.	.
=38	=38	=38	=38	=38	=38	=38	=38	=38	=38	=38	=38	=38	=38	=38	=38
4BB-	8r	.	.	.	4b-	.	4dd	pao	.	4f]	ha	8f]	ha	.	.
.	16ALL	か	.	.	.	.	.	.	.	.	.	16ALL	か	.	.
.	[16dJJ	く	.	.	.	.	.	.	.	.	.	[16dJJ	く	.	.
8r	16dKL]	.	.	.	4r	.	4r	.	.	4r	.	16dKL]	.	.	.
.	8e	す	.	.	.	.	.	.	.	.	.	8e	す	.	.
8BB-	.	.	.	.	.	.	.	.	.	.	.	.	.	.	.
.	[16fJk	ま	.	.	.	.	.	.	.	.	.	[16fJk	ま	.	.
4AA	16fLL]	.	.	.	4r	.	4r	.	.	2r	.	16fLL]	.	.	.
.	16g	じ	.	.	.	.	.	.	.	.	.	16g	じ	.	.
.	16A	か	.	.	.	.	.	.	.	.	.	16A	か	.	.
.	[16dJJ	く	.	.	.	.	.	.	.	.	.	[16dJJ	く	.	.
4D-X	16dKL]	.	.	.	4c#X	.	4e	fu	.	.	.	16dKL]	.	.	.
.	8e	す	.	.	.	.	.	.	.	.	.	8e	す	.	.
.	[16fJk	ま	.	.	.	.	.	.	.	.	.	[16fJk	ま	.	.
=39	=39	=39	=39	=39	=39	=39	=39	=39	=39	=39	=39	=39	=39	=39	=39
4D	16fLL]	.	.	.	4a	.	4cc	(f)	.	2r	.	16fLL]	.	.	.
.	16g	じ	.	.	.	.	.	.	.	.	.	16g	じ	.	.
.	16A	か	.	.	.	.	.	.	.	.	.	16A	か	.	.
.	[16dJJ	く	.	.	.	.	.	.	.	.	.	[16dJJ	く	.	.
8r	16dKL]	.	.	.	4f	.	4a	.	.	.	.	16dKL]	.	.	.
.	8e	す	.	.	.	.	.	.	.	.	.	8e	す	.	.
8D	.	.	.	.	.	.	.	.	.	.	.	.	.	.	.
.	[16fJk	ま	.	.	.	.	.	.	.	.	.	[16fJk	ま	.	.
4F	16fLL]	じ	.	.	4e-X	.	4g	.	.	4r	.	16fLL]	じ	.	.
.	16gJJ	.	.	.	.	.	.	.	.	.	.	16gJJ	.	.	.
.	8r	.	.	.	.	.	.	.	.	.	.	8r	.	.	.
4FF	8gL	わ	.	.	4c	.	4f	.	.	8b-L	わ	8b-L	わ	.	.
.	[8aJ	.	.	.	.	.	.	.	.	[8ccJ	.	[8ccJ	.	.	.
=40	=40	=40	=40	=40	=40	=40	=40	=40	=40	=40	=40	=40	=40	=40	=40
4BB-	8aL]	.	.	.	2f	.	2a	wa	.	8ccL]	.	8ccL]	.	.	.
.	8b-	れ	.	.	.	.	.	.	.	8dd	れ	8dd	れ	.	.
8r	8f	ら	.	.	.	.	.	.	.	8a	ら	8a	ら	.	.
8BB-	8aJ	の	.	.	.	.	.	.	.	8ccJ	の	8ccJ	の	.	.
4AA	4e	な	.	.	2e	.	2b-	.	.	4g	な	4g	な	.	.
4D-X	8fL	つ	.	.	.	.	.	.	.	8aL	つ	8aL	つ	.	.
.	[8dJ	を	.	.	.	.	.	.	.	[8fJ	を	[8fJ	を	.	.
=41	=41	=41	=41	=41	=41	=41	=41	=41	=41	=41	=41	=41	=41	=41	=41
12DL	4d]	.	.	.	12eL	.	12aL	da	.	4f]	.	4f]	.	.	.
12D	.	.	.	.	12e	.	12a	na	.	.	.	.	.	.	.
12DJ	.	.	.	.	12eJ	.	12aJ	na	.	.	.	.	.	.	.
4r	4r	.	.	.	4r	.	4r	.	.	4r	.	4r	.	.	.
2r	2r	.	.	.	2r	.	2r	.	.	8r	.	8r	.	.	.
.	.	.	.	.	.	.	.	.	.	8dL	な	8dL	な	.	.
.	.	.	.	.	.	.	.	.	.	8a	に	8a	に	.	.
.	.	.	.	.	.	.	.	.	.	[8dJ	か	[8dJ	か	.	.
=42||	=42||	=42||	=42||	=42||	=42||	=42||	=42||	=42||	=42||	=42||	=42||	=42||	=42||	=42||	=42||
1r	1B-	fu	.	.	1d	.	1f	fu	.	8.dL]	.	8.dL]	.	.	.
.	.	.	.	.	.	.	.	.	.	16cJk	し	16cJk	し	.	.
.	.	.	.	.	.	.	.	.	.	4d	ら	4d	ら	.	.
.	.	.	.	.	.	.	.	.	.	8dL	お	8dL	お	.	.
.	.	.	.	.	.	.	.	.	.	8d	ち	8d	ち	.	.
.	.	.	.	.	.	.	.	.	.	8d	こ	8d	こ	.	.
.	.	.	.	.	.	.	.	.	.	8dJ	む	8dJ	む	.	.
=43	=43	=43	=43	=43	=43	=43	=43	=43	=43	=43	=43	=43	=43	=43	=43
1r	6r	.	.	.	1d	.	1f#X	.	.	8.dL	だ	8.dL	だ	.	.
.	6G-X	lu	.	.	.	.	.	.	.	.	.	.	.	.	.
.	.	.	.	.	.	.	.	.	.	[16dJk	こ	[16dJk	こ	.	.
.	.	.	.	.	.	.	.	.	.	8dL]	.	8dL]	.	.	.
.	6E	lu	.	.	.	.	.	.	.	.	.	.	.	.	.
.	.	.	.	.	.	.	.	.	.	8dJ	こ	8dJ	こ	.	.
.	6D	lu	.	.	.	.	.	.	.	8dL	ろ	8dL	ろ	.	.
.	.	.	.	.	.	.	.	.	.	8cJ	は	8cJ	は	.	.
.	6E	lu	.	.	.	.	.	.	.	.	.	.	.	.	.
.	.	.	.	.	.	.	.	.	.	8r	.	8r	.	.	.
.	6G-	lu	.	.	.	.	.	.	.	.	.	.	.	.	.
.	.	.	.	.	.	.	.	.	.	16dLL	ひ	16dLL	ひ	.	.
.	.	.	.	.	.	.	.	.	.	[16dJJ	と	[16dJJ	と	.	.
=44	=44	=44	=44	=44	=44	=44	=44	=44	=44	=44	=44	=44	=44	=44	=44
1r	1B-	fu	.	.	1c	.	1f	fu	.	8.dL]	.	8.dL]	.	.	.
.	.	.	.	.	.	.	.	.	.	16cJk	い	16cJk	い	.	.
.	.	.	.	.	.	.	.	.	.	4d	き	4d	き	.	.
.	.	.	.	.	.	.	.	.	.	8dL	れ	8dL	れ	.	.
.	.	.	.	.	.	.	.	.	.	8c	さ	8c	さ	.	.
.	.	.	.	.	.	.	.	.	.	8f	ま	8f	ま	.	.
.	.	.	.	.	.	.	.	.	.	8fJ	よ	8fJ	よ	.	.
=45	=45	=45	=45	=45	=45	=45	=45	=45	=45	=45	=45	=45	=45	=45	=45
1r	2A	.	.	.	1d	.	1g-X	.	.	4.e	っ	4.e	っ	.	.
.	.	.	.	.	.	.	.	.	.	8d	て	8d	て	.	.
.	6r	.	.	.	.	.	.	.	.	8r	.	8r	.	.	.
.	.	.	.	.	.	.	.	.	.	8dL	な	8dL	な	.	.
.	6D-X	lu	.	.	.	.	.	.	.	.	.	.	.	.	.
.	.	.	.	.	.	.	.	.	.	8a	が	8a	が	.	.
.	6Dn	lu	.	.	.	.	.	.	.	.	.	.	.	.	.
.	.	.	.	.	.	.	.	.	.	8dJ	し	8dJ	し	.	.
=46	=46	=46	=46	=46	=46	=46	=46	=46	=46	=46	=46	=46	=46	=46	=46
1r	12FL	lu	.	.	1d	.	1f	fu	.	4r	.	4r	.	.	.
.	12E	lu	.	.	.	.	.	.	.	.	.	.	.	.	.
.	12DJ	lu	.	.	.	.	.	.	.	.	.	.	.	.	.
.	12r	.	.	.	.	.	.	.	.	4d	な	4d	な	.	.
.	12r	.	.	.	.	.	.	.	.	.	.	.	.	.	.
.	12A	lu	.	.	.	.	.	.	.	.	.	.	.	.	.
.	12GL	lu	.	.	.	.	.	.	.	4d	が	4d	が	.	.
.	12G-X	lu	.	.	.	.	.	.	.	.	.	.	.	.	.
.	12DJ	lu	.	.	.	.	.	.	.	.	.	.	.	.	.
.	12r	.	.	.	.	.	.	.	.	4d	さ	4d	さ	.	.
.	12cL	lu	.	.	.	.	.	.	.	.	.	.	.	.	.
.	12B-J	lu	.	.	.	.	.	.	.	.	.	.	.	.	.
=47	=47	=47	=47	=47	=47	=47	=47	=47	=47	=47	=47	=47	=47	=47	=47
1r	12AL	lu	.	.	1d	.	1f#X	.	.	8.dL	れ	8.dL	れ	.	.
.	12G-X	lu	.	.	.	.	.	.	.	.	.	.	.	.	.
.	12DJ	lu	.	.	.	.	.	.	.	.	.	.	.	.	.
.	.	.	.	.	.	.	.	.	.	[16dJk	お	[16dJk	お	.	.
.	4r	.	.	.	.	.	.	.	.	8dL]	.	8dL]	.	.	.
.	.	.	.	.	.	.	.	.	.	8dJ	も	8dJ	も	.	.
.	2r	.	.	.	.	.	.	.	.	8dL	え	8dL	え	.	.
.	.	.	.	.	.	.	.	.	.	8cJ	ば	8cJ	ば	.	.
.	.	.	.	.	.	.	.	.	.	8r	.	8r	.	.	.
.	.	.	.	.	.	.	.	.	.	8d	と	8d	と	.	.
=48	=48	=48	=48	=48	=48	=48	=48	=48	=48	=48	=48	=48	=48	=48	=48
1r	1B-	fu	.	.	1c	.	1f	fu	.	8dL	お	8dL	お	.	.
.	.	.	.	.	.	.	.	.	.	8c	く	8c	く	.	.
.	.	.	.	.	.	.	.	.	.	8d	へ	8d	へ	.	.
.	.	.	.	.	.	.	.	.	.	8dJ	き	8dJ	き	.	.
.	.	.	.	.	.	.	.	.	.	8dL	た	8dL	た	.	.
.	.	.	.	.	.	.	.	.	.	8f	も	8f	も	.	.
.	.	.	.	.	.	.	.	.	.	8A	の	8A	の	.	.
.	.	.	.	.	.	.	.	.	.	[8eJ	だ	[8eJ	だ	.	.
=49	=49	=49	=49	=49	=49	=49	=49	=49	=49	=49	=49	=49	=49	=49	=49
2r	2c#X	.	.	.	2e	.	2a	.	.	2e]	.	2e]	.	.	.
8r	8r	.	.	.	2r	.	2r	.	.	2r	.	8r	.	.	.
8D	[8f	えい	.	.	.	.	.	.	.	.	.	[8f	えい	.	.
4F	16fKL]	.	.	.	.	.	.	.	.	.	.	16fKL]	.	.	.
.	8.fJ	えん	.	.	.	.	.	.	.	.	.	8.fJ	えん	.	.
=50||	=50||	=50||	=50||	=50||	=50||	=50||	=50||	=50||	=50||	=50||	=50||	=50||	=50||	=50||	=50||
4C-X	8.fL	なん	.	.	1d	woo	1f	woo	.	1c-X	woo	8.fL	なん	.	.
.	16gJk	て	.	.	.	.	.	.	.	.	.	16gJk	て	.	.
8r	4r	.	.	.	.	.	.	.	.	.	.	4r	.	.	.
8C-	.	.	.	.	.	.	.	.	.	.	.	.	.	.	.
4C-	8r	.	.	.	.	.	.	.	.	.	.	8r	.	.	.
.	[8f	そっ	.	.	.	.	.	.	.	.	.	[8f	そっ	.	.
4r	16fKL]	.	.	.	.	.	.	.	.	.	.	16fKL]	.	.	.
.	8.fJ	け	.	.	.	.	.	.	.	.	.	8.fJ	け	.	.
=51	=51	=51	=51	=51	=51	=51	=51	=51	=51	=51	=51	=51	=51	=51	=51
4BB-	8.fL	ない	.	.	1f	.	1g	.	.	1d-X	woo	8.fL	ない	.	.
.	16gJk	ね	.	.	.	.	.	.	.	.	.	16gJk	ね	.	.
8r	4r	.	.	.	.	.	.	.	.	.	.	4r	.	.	.
8BB-	.	.	.	.	.	.	.	.	.	.	.	.	.	.	.
4BB-	8r	.	.	.	.	.	.	.	.	.	.	8r	.	.	.
.	[8d	ほん	.	.	.	.	.	.	.	.	.	[8d	ほん	.	.
4r	16dKL]	.	.	.	.	.	.	.	.	.	.	16dKL]	.	.	.
.	8.fJ	の	.	.	.	.	.	.	.	.	.	8.fJ	の	.	.
=52	=52	=52	=52	=52	=52	=52	=52	=52	=52	=52	=52	=52	=52	=52	=52
4AA	8aL	か	.	.	1e	.	1a	.	.	1c	woo	8aL	か	.	.
.	8b-	り	.	.	.	.	.	.	.	.	.	8b-	り	.	.
8r	8a	そ	.	.	.	.	.	.	.	.	.	8a	そ	.	.
8AA	8b-J	め	.	.	.	.	.	.	.	.	.	8b-J	め	.	.
4AA	8.aL	が	.	.	.	.	.	.	.	.	.	8.aL	が	.	.
.	[16dJk	いい	.	.	.	.	.	.	.	.	.	[16dJk	いい	.	.
4r	8dL]	.	.	.	.	.	.	.	.	.	.	8dL]	.	.	.
.	[8dJ	ね	.	.	.	.	.	.	.	.	.	[8dJ	ね	.	.
=53	=53	=53	=53	=53	=53	=53	=53	=53	=53	=53	=53	=53	=53	=53	=53
4AA-X	2d]	.	.	.	[4.c-X	.	4.d	.	.	[4.A-X	.	2d]	.	.	.
8r	.	.	.	.	.	.	.	.	.	.	.	.	.	.	.
16AA-LL	.	.	.	.	8c-]	.	8d	.	.	8A-]	.	.	.	.	.
16AA-JJ	.	.	.	.	.	.	.	.	.	.	.	.	.	.	.
8DL	2r	.	.	.	2f	.	2a-X	.	.	2d	.	2r	.	.	.
8DJ	.	.	.	.	.	.	.	.	.	.	.	.	.	.	.
4AA-	.	.	.	.	.	.	.	.	.	.	.	.	.	.	.
=54	=54	=54	=54	=54	=54	=54	=54	=54	=54	=54	=54	=54	=54	=54	=54
4GG	2B-	.	.	.	2d	.	2f	fu	.	8r	.	8r	.	.	.
.	.	.	.	.	.	.	.	.	.	8dL	い	8dL	い	.	.
8r	.	.	.	.	.	.	.	.	.	8dd	よ	8dd	よ	.	.
8GG	.	.	.	.	.	.	.	.	.	8ddJ	い	8ddJ	い	.	.
4GG	4r	.	.	.	4r	.	4r	.	.	4a	よ	4a	よ	.	.
8r	4B-	.	.	.	4d	.	4f	fu	.	4cc	えん	4cc	えん	.	.
16GGLL	.	.	.	.	.	.	.	.	.	.	.	.	.	.	.
16GGJJ	.	.	.	.	.	.	.	.	.	.	.	.	.	.	.
=55	=55	=55	=55	=55	=55	=55	=55	=55	=55	=55	=55	=55	=55	=55	=55
4AA	2c#X	.	.	.	2e	.	2g	fu	.	8.gL	も	8.gL	も	.	.
.	.	.	.	.	.	.	.	.	.	16fJk	た	16fJk	た	.	.
8r	.	.	.	.	.	.	.	.	.	8.eL	け	8.eL	け	.	.
16AALL	.	.	.	.	.	.	.	.	.	.	.	.	.	.	.
16AAJJ	.	.	.	.	.	.	.	.	.	16fJk	な	16fJk	な	.	.
4AA	4r	.	.	.	4r	.	4r	.	.	4g	わ	4g	わ	.	.
4D-X	4c#	.	.	.	4e	.	4g	fu	.	4a	ほん	4a	ほん	.	.
=56	=56	=56	=56	=56	=56	=56	=56	=56	=56	=56	=56	=56	=56	=56	=56
4D	1d	.	.	.	1e	.	1f	wa	.	2.a	ばん	2.a	ばん	.	.
8r	.	.	.	.	.	.	.	.	.	.	.	.	.	.	.
8D	.	.	.	.	.	.	.	.	.	.	.	.	.	.	.
4D	.	.	.	.	.	.	.	.	.	.	.	.	.	.	.
8r	.	.	.	.	.	.	.	.	.	8ccL	で	8ccL	で	.	.
16DLL	.	.	.	.	.	.	.	.	.	[8gJ	す	[8gJ	す	.	.
16DJJ	.	.	.	.	.	.	.	.	.	.	.	.	.	.	.
=57	=57	=57	=57	=57	=57	=57	=57	=57	=57	=57	=57	=57	=57	=57	=57
12CL	12B-L	.	.	.	12dL	.	12gL	da	.	4g]	.	4g]	.	.	.
12C	12B-	.	.	.	12d	.	12g	na	.	.	.	.	.	.	.
12CJ	12B-J	.	.	.	12dJ	.	12gJ	na	.	.	.	.	.	.	.
4r	4r	.	.	.	4r	.	4r	.	.	4r	.	4r	.	.	.
2r	2r	.	.	.	2r	.	2r	.	.	4d	みん	4d	みん	.	.
.	.	.	.	.	.	.	.	.	.	4f	な	4f	な	.	.
=58||	=58||	=58||	=58||	=58||	=58||	=58||	=58||	=58||	=58||	=58||	=58||	=58||	=58||	=58||	=58||
4BB-	4r	.	.	.	4r	.	4r	.	.	4a	めい	4a	めい	.	.
8r	4d	.	.	.	4f	.	4b-	ao-	.	8.aL	め	8.aL	め	.	.
8BB-	.	.	.	.	.	.	.	.	.	.	.	.	.	.	.
.	.	.	.	.	.	.	.	.	.	16aJk	い	16aJk	い	.	.
4AA	4d-X	.	.	.	4e	.	4a	-uh	.	8aL	よ	8aL	よ	.	.
.	.	.	.	.	.	.	.	.	.	8f	り	8f	り	.	.
4D-X	4A	.	.	.	4d-X	.	4e	.	.	8g	ど	8g	ど	.	.
.	.	.	.	.	.	.	.	.	.	8dJ	り	8dJ	り	.	.
=59	=59	=59	=59	=59	=59	=59	=59	=59	=59	=59	=59	=59	=59	=59	=59
4D	4e	.	.	.	4a	.	4cc	(f)	.	4f	ぜん	4f	ぜん	.	.
8r	4d	.	.	.	4f	.	4a	.	.	8dL	ほ	8dL	ほ	.	.
8D	.	.	.	.	.	.	.	.	.	[8cJ	.	[8cJ	.	.	.
4F	4c	.	.	.	4e-X	.	4g	.	.	4c]	い	4c]	い	.	.
4C	4A	.	.	.	4c	.	4f	.	.	8dL	ど	8dL	ど	.	.
.	.	.	.	.	.	.	.	.	.	8fJ	う	8fJ	う	.	.
=60	=60	=60	=60	=60	=60	=60	=60	=60	=60	=60	=60	=60	=60	=60	=60
4BB-	4r	.	.	.	4r	.	4r	.	.	16b-KL	も	16b-KL	も	.	.
.	.	.	.	.	.	.	.	.	.	8.ccJ	う	8.ccJ	う	.	.
8r	4d	.	.	.	4f	.	[4a	fu	.	8.ccL	な	8.ccL	な	.	.
8BB-	.	.	.	.	.	.	.	.	.	.	.	.	.	.	.
.	.	.	.	.	.	.	.	.	.	16ccJk	い	16ccJk	い	.	.
4AA	2d-X	.	.	.	2e	.	4a]	.	.	8ccL	の	8ccL	の	.	.
.	.	.	.	.	.	.	.	.	.	8a-X	ち	8a-X	ち	.	.
4D-X	.	.	.	.	.	.	4g	.	.	8g	も	8g	も	.	.
.	.	.	.	.	.	.	.	.	.	[8fJ	やす	[8fJ	やす	.	.
=61	=61	=61	=61	=61	=61	=61	=61	=61	=61	=61	=61	=61	=61	=61	=61
4D	2c	.	.	.	2d	.	2f	.	.	8fL]	.	8fL]	.	.	.
.	.	.	.	.	.	.	.	.	.	8gJ	に	8gJ	に	.	.
8r	.	.	.	.	.	.	.	.	.	8a	お	8a	お	.	.
8D	.	.	.	.	.	.	.	.	.	16g#XLL	.	16g#XLL	.	.	.
.	.	.	.	.	.	.	.	.	.	[16aJJ	.	[16aJJ	.	.	.
8FL	16r	.	.	.	16r	.	16r	.	.	8a]	ひ	8a]	ひ	.	.
.	16c	.	.	.	16f	.	16a	pa	.	.	.	.	.	.	.
8F	16r	.	.	.	16r	.	16r	.	.	8r	.	8r	.	.	.
.	16c	.	.	.	16f	.	16a	pa	.	.	.	.	.	.	.
8F	16r	.	.	.	16r	.	16r	.	.	[4f	ah	[4f	ah	.	.
.	16e-X	.	.	.	16g	.	16cc	pa	.	.	.	.	.	.	.
8FJ	16r	.	.	.	16r	.	16r	.	.	.	.	.	.	.	.
.	16e-	.	.	.	16g	.	16cc	pa	.	.	.	.	.	.	.
=62	=62	=62	=62	=62	=62	=62	=62	=62	=62	=62	=62	=62	=62	=62	=62
4BB-	8r	.	.	.	4b-	.	4dd	pao	.	4f]	ha	8f]	ha	.	.
.	16ALL	お	.	.	.	.	.	.	.	.	.	16ALL	お	.	.
.	[16dJJ	く	.	.	.	.	.	.	.	.	.	[16dJJ	く	.	.
8r	16dKL]	.	.	.	4r	.	4r	.	.	4r	.	16dKL]	.	.	.
.	8e	す	.	.	.	.	.	.	.	.	.	8e	す	.	.
8BB-	.	.	.	.	.	.	.	.	.	.	.	.	.	.	.
.	[16fJk	ま	.	.	.	.	.	.	.	.	.	[16fJk	ま	.	.
4AA	16fLL]	.	.	.	8r	.	2r	.	.	2r	.	16fLL]	.	.	.
.	16g	じ	.	.	.	.	.	.	.	.	.	16g	じ	.	.
.	16A	お	.	.	16ALL	お	.	.	.	.	.	16A	お	.	.
.	[16dJJ	く	.	.	[16B-JJ	く	.	.	.	.	.	[16dJJ	く	.	.
4D-X	16dKL]	.	.	.	16B-KL]	.	.	.	.	.	.	16dKL]	.	.	.
.	8e	す	.	.	8c	す	.	.	.	.	.	8e	す	.	.
.	[16fJk	ま	.	.	[16dJk	ま	.	.	.	.	.	[16fJk	ま	.	.
=63	=63	=63	=63	=63	=63	=63	=63	=63	=63	=63	=63	=63	=63	=63	=63
4D	16fLL]	.	.	.	16dLL]	.	8r	.	.	2r	.	16fLL]	.	.	.
.	16g	じ	.	.	16e	じ	.	.	.	.	.	16g	じ	.	.
.	16A	お	.	.	16A	お	16cLL	お	.	.	.	16A	お	.	.
.	[16dJJ	く	.	.	[16B-JJ	く	[16fJJ	く	.	.	.	[16dJJ	く	.	.
8r	16dKL]	.	.	.	16B-KL]	.	16fKL]	.	.	.	.	16dKL]	.	.	.
.	8e	す	.	.	8c	す	8g	す	.	.	.	8e	す	.	.
8D	.	.	.	.	.	.	.	.	.	.	.	.	.	.	.
.	[16fJk	ま	.	.	[16dJk	ま	[16aJk	ま	.	.	.	[16fJk	ま	.	.
4F	16fLL]	.	.	.	16dLL]	.	16aLL]	.	.	4r	.	16fLL]	.	.	.
.	16gJJ	じ	.	.	16eJJ	じ	16b-JJ	じ	.	.	.	16gJJ	じ	.	.
.	8r	.	.	.	8r	.	8r	.	.	.	.	8r	.	.	.
4FF	[4a	わ	.	.	[4f	わ	12aL	わ	.	12aL	わ	12aL	わ	.	.
.	.	.	.	.	.	.	12b-	.	.	12b-	.	12b-	.	.	.
.	.	.	.	.	.	.	[12ccJ	.	.	[12ccJ	.	[12ccJ	.	.	.
=64	=64	=64	=64	=64	=64	=64	=64	=64	=64	=64	=64	=64	=64	=64	=64
4BB-	8aL]	.	.	.	8fL]	.	8ccL]	.	.	8ccL]	.	8ccL]	.	.	.
.	8b-	れ	.	.	8f	れ	8dd	れ	.	8dd	れ	8dd	れ	.	.
8r	8f	ら	.	.	8d	ら	8a	ら	.	8a	ら	8a	ら	.	.
8BB-	8aJ	は	.	.	8fJ	は	8ccJ	は	.	8ccJ	は	8ccJ	は	.	.
4AA	4e	な	.	.	4d-X	な	4g	な	.	4g	な	4g	な	.	.
4D-X	8fL	つ	.	.	8d-L	つ	8aL	つ	.	8aL	つ	8aL	つ	.	.
.	8dJ	よ	.	.	8AJ	よ	8eJ	よ	.	8eJ	よ	8eJ	よ	.	.
=65	=65	=65	=65	=65	=65	=65	=65	=65	=65	=65	=65	=65	=65	=65	=65
12DL	12dL	.	.	.	12fL	.	12aL	da	.	4f	.	4f	.	.	.
12D	12d	.	.	.	12f	.	12a	na	.	.	.	.	.	.	.
12DJ	12dJ	.	.	.	12fJ	.	12aJ	na	.	.	.	.	.	.	.
4r	4r	.	.	.	4r	.	4r	.	.	4r	.	4r	.	.	.
4E	4d	ちょい	.	.	4d	ちょい	4d	ちょい	.	4d	ちょい	4d	ちょい	.	.
4F	4f	と	.	.	4f	と	4f	と	.	4f	と	4f	と	.	.
=66||	=66||	=66||	=66||	=66||	=66||	=66||	=66||	=66||	=66||	=66||	=66||	=66||	=66||	=66||	=66||
8BB-L	8r	.	.	.	8r	.	8r	.	.	4a	おん	4a	おん	.	.
8BB-'	8d'	.	.	.	8f'	.	8a'	pa	.	.	.	.	.	.	.
8BB-	8.dL	.	.	.	8.fL	.	8.aL	pa	.	4a	な	4a	な	.	.
8BB-'J	.	.	.	.	.	.	.	.	.	.	.	.	.	.	.
.	16dJk	.	.	.	16fJk	.	16aJk	la	.	.	.	.	.	.	.
8AAL	16r	.	.	.	16r	.	16r	.	.	8aL	ざ	8aL	ざ	.	.
.	16c#XKL	.	.	.	16eKL	.	16aKL	pa	.	.	.	.	.	.	.
8AA'	8c#'J	.	.	.	8e'J	.	8a'J	la	.	8f	か	8f	か	.	.
8AA	8c#'L	.	.	.	8e'L	.	8a'L	pa	.	8g	り	8g	り	.	.
8D-X'J	8c#'J	.	.	.	8e'J	.	8a'J	pa	.	8dJ	を	8dJ	を	.	.
=67	=67	=67	=67	=67	=67	=67	=67	=67	=67	=67	=67	=67	=67	=67	=67
8DL	8r	.	.	.	8r	.	8r	.	.	4f	どう	4f	どう	.	.
8D'	8c'	.	.	.	8e'	.	8a'	pa	.	.	.	.	.	.	.
8D	8c'	.	.	.	8e'	.	8a'	pa	.	8dL	し	8dL	し	.	.
8D'J	16r	.	.	.	16r	.	16r	.	.	[8cJ	やう	[8cJ	やう	.	.
.	16c	.	.	.	16e	.	16a	pa	.	.	.	.	.	.	.
8DL	16r	.	.	.	16r	.	16r	.	.	8c]	.	8c]	.	.	.
.	16cKL	.	.	.	16e-XKL	.	16aKL	pa-	.	.	.	.	.	.	.
8D'	8cJ	.	.	.	8e-J	.	8aJ	-i	.	8r	.	8r	.	.	.
8C	8c'L	.	.	.	8e-'L	.	8a'L	ya	.	8dL	こ	8dL	こ	.	.
8C'J	8c'J	.	.	.	8e-'J	.	8a'J	pa	.	8fJ	の	8fJ	の	.	.
=68	=68	=68	=68	=68	=68	=68	=68	=68	=68	=68	=68	=68	=68	=68	=68
8BB-L	8r	.	.	.	8r	.	8r	.	.	4cc	ま	4cc	ま	.	.
8BB-'	8B-'	.	.	.	8f'	.	8a'	pa	.	.	.	.	.	.	.
8BB-	8.B-L	.	.	.	8.fL	.	8.aL	pa	.	4cc	ま	4cc	ま	.	.
8BB-'J	.	.	.	.	.	.	.	.	.	.	.	.	.	.	.
.	16B-Jk	.	.	.	16fJk	.	16aJk	la	.	.	.	.	.	.	.
8AAL	16r	.	.	.	16r	.	16r	.	.	8ccL	ぢゃ	8ccL	ぢゃ	.	.
.	16c#XKL	.	.	.	16eKL	.	16gKL	pa	.	.	.	.	.	.	.
8AA'	8c#'J	.	.	.	8e'J	.	8g'J	la	.	8a-X	い	8a-X	い	.	.
8D-X	8c#'L	.	.	.	8e'L	.	8g'L	pa	.	8g	き	8g	き	.	.
8D-'J	8c#'J	.	.	.	8e'J	.	8g'J	pa	.	[8fJ	ば	[8fJ	ば	.	.
=69	=69	=69	=69	=69	=69	=69	=69	=69	=69	=69	=69	=69	=69	=69	=69
8DL	8.fL	.	.	.	8.aL	.	8.ddL	wow-	.	8fL]	.	8fL]	.	.	.
8D'	.	.	.	.	.	.	.	.	.	8gJ	が	8gJ	が	.	.
.	[16eJk	.	.	.	[16aJk	.	[16dd-XJk	-ow-	.	.	.	.	.	.	.
8D	8eL]	.	.	.	8aL]	.	8dd-L]	.	.	8aL	な	8aL	な	.	.
8D'J	[8dJ	.	.	.	[8aJ	.	[8ccJ	ow-	.	16g#XL	.	16g#XL	.	.	.
.	.	.	.	.	.	.	.	.	.	[16aJJ	.	[16aJJ	.	.	.
8FL	16dKL]	.	.	.	16aKL]	.	16ccKL]	.	.	8a]	い	8a]	い	.	.
.	8.d-XJ	.	.	.	8.a-XJ	.	8.cc-XJ	-ow	.	.	.	.	.	.	.
8E'	.	.	.	.	.	.	.	.	.	8r	.	8r	.	.	.
8D	8cL	.	.	.	8gL	.	8b-L	wa	.	[4f	ah	[4f	ah	.	.
8C'J	8cJ	.	.	.	8fJ	.	8aJ	a	.	.	.	.	.	.	.
=70	=70	=70	=70	=70	=70	=70	=70	=70	=70	=70	=70	=70	=70	=70	=70
8BB-L	8r	.	.	.	4b-	.	4dd	pao	.	4f]	.	4f]	.	.	.
8BB-'	16ALL	.	は	.	.	.	.	.	.	.	.	.	.	.	.
.	[16dJJ	.	な	.	.	.	.	.	.	.	.	.	.	.	.
8BB-	16dKL]	.	.	.	4r	.	4r	.	.	4r	.	4r	.	.	.
.	8e	.	ざ	.	.	.	.	.	.	.	.	.	.	.	.
8BB-'J	.	.	.	.	.	.	.	.	.	.	.	.	.	.	.
.	[16fJk	.	か	.	.	.	.	.	.	.	.	.	.	.	.
8AAL	16fLL]	.	.	.	8r	.	2r	.	.	2r	.	2r	.	.	.
.	16g	.	り	.	.	.	.	.	.	.	.	.	.	.	.
8AA'	16A	.	い	.	16ALL	い	.	.	.	.	.	.	.	.	.
.	[16dJJ	.	ろ	.	[16B-JJ	ろ	.	.	.	.	.	.	.	.	.
8D-X	16dKL]	.	.	.	16B-KL]	.	.	.	.	.	.	.	.	.	.
.	8e	.	ざ	.	8c	ざ	.	.	.	.	.	.	.	.	.
8D-'J	.	.	.	.	.	.	.	.	.	.	.	.	.	.	.
.	[16fJk	.	か	.	[16dJk	か	.	.	.	.	.	.	.	.	.
=71	=71	=71	=71	=71	=71	=71	=71	=71	=71	=71	=71	=71	=71	=71	=71
8DL	16fLL]	.	.	.	16dLL]	.	8r	.	.	2r	.	8r	.	.	.
.	16g	.	り	.	16e	り	.	.	.	.	.	.	.	.	.
8D'	16A	.	ah	.	16A	ah	16cLL	ah	.	.	.	16cLL	ah	.	.
.	[16dJJ	.	まっ	.	[16B-JJ	まっ	[16fJJ	まっ	.	.	.	[16fJJ	まっ	.	.
8D	16dKL]	.	.	.	16B-KL]	.	16fKL]	.	.	.	.	16fKL]	.	.	.
.	8e	.	さ	.	8c	さ	8g	さ	.	.	.	8g	さ	.	.
8D'J	.	.	.	.	.	.	.	.	.	.	.	.	.	.	.
.	[16fJk	.	か	.	[16dJk	か	[16aJk	か	.	.	.	[16aJk	か	.	.
8FL	16fLL]	.	.	.	16dLL]	.	16aLL]	.	.	4r	.	16aLL]	.	.	.
.	16gJJ	.	り	.	16eJJ	り	16b-JJ	り	.	.	.	16b-JJ	り	.	.
8F'	8r	.	.	.	8r	.	8r	.	.	.	.	8r	.	.	.
8C	16c-XLL	.	.	.	16fLL	.	16a-XLL	pa	.	16aLL	ah	4r	.	.	.
.	16B-	.	.	.	16e	.	16g	la	.	16b-J	.	.	.	.	.
8C'J	16A	.	.	.	16d	.	16f	pa	.	[8ccJ	.	.	.	.	.
.	[16B-JJ	.	.	.	[16eJJ	.	[16gJJ	pa	.	.	.	.	.	.	.
=72	=72	=72	=72	=72	=72	=72	=72	=72	=72	=72	=72	=72	=72	=72	=72
8BB-L	8B-L]	.	.	.	8eL]	.	8gL]	.	.	8ccL]	.	1r	.	.	.
8BB-'	8A	.	.	.	8d	.	8f	pa	.	8dd	.	.	.	.	.
8BB-	8F	.	.	.	8B-	.	8d	pa	.	8a	.	.	.	.	.
8BB-'J	8AJ	.	.	.	8dJ	.	8fJ	la	.	8ccJ	.	.	.	.	.
8AAL	4c#X	.	.	.	4e	.	4a	pa	.	4g	.	.	.	.	.
8AA'	.	.	.	.	.	.	.	.	.	.	.	.	.	.	.
8D-X	4e	ま	.	.	4g	ま	4dd-X	ま	.	8aL	ま	.	.	.	.
8D-'J	.	.	.	.	.	.	.	.	.	[8fJ	だ	.	.	.	.
=73	=73	=73	=73	=73	=73	=73	=73	=73	=73	=73	=73	=73	=73	=73	=73
12DL	12dL	.	.	.	12fL	da	12aL	da	.	4f]	.	1r	.	.	.
12D	12d	.	.	.	12f	na	12a	na	.	.	.	.	.	.	.
12DJ	12dJ	.	.	.	12fJ	na	12aJ	na	.	.	.	.	.	.	.
8r	8r	.	.	.	8r	.	8r	.	.	4r	.	.	.	.	.
16DLL	16fLL	.	.	.	16aLL	da	16ddLL	da	.	.	.	.	.	.	.
16DJJ	16fJJ	.	.	.	16aJJ	da	16ddJJ	da	.	.	.	.	.	.	.
2r	2r	.	.	.	8r	.	2r	.	.	2r	.	.	.	.	.
.	.	.	.	.	8a-X'L	lu	.	.	.	.	.	.	.	.	.
.	.	.	.	.	8a-'	tu	.	.	.	.	.	.	.	.	.
.	.	.	.	.	8f'J	tu	.	.	.	.	.	.	.	.	.
=74||	=74||	=74||	=74||	=74||	=74||	=74||	=74||	=74||	=74||	=74||	=74||	=74||	=74||	=74||	=74||
8.GGL	2.A	.	.	.	2.d	fu	1r	.	.	[1f	.	1r	.	.	.
[16GGJk	.	.	.	.	.	.	.	.	.	.	.	.	.	.	.
8GGL]	.	.	.	.	.	.	.	.	.	.	.	.	.	.	.
16GGL	.	.	.	.	.	.	.	.	.	.	.	.	.	.	.
[16AAJJ	.	.	.	.	.	.	.	.	.	.	.	.	.	.	.
8.AAL]	.	.	.	.	.	.	.	.	.	.	.	.	.	.	.
[16GGJk	.	.	.	.	.	.	.	.	.	.	.	.	.	.	.
8GGL]	16GLL	.	.	.	16c-XLL	pa	.	.	.	.	.	.	.	.	.
.	16AJJ	.	.	.	16dJJ	la	.	.	.	.	.	.	.	.	.
8GGJ	16r	.	.	.	16r	.	.	.	.	.	.	.	.	.	.
.	16c	.	.	.	16f	pa	.	.	.	.	.	.	.	.	.
=75	=75	=75	=75	=75	=75	=75	=75	=75	=75	=75	=75	=75	=75	=75	=75
8.GGL	16r	.	.	.	16r	.	4d	uh	.	1f]	.	1r	.	.	.
.	[8.A	.	.	.	[8.d	pa	.	.	.	.	.	.	.	.	.
[16GGJk	.	.	.	.	.	.	.	.	.	.	.	.	.	.	.
8GGL]	4A]	.	.	.	4d]	.	[4a	.	.	.	.	.	.	.	.
16GGL	.	.	.	.	.	.	.	.	.	.	.	.	.	.	.
[16AAJJ	.	.	.	.	.	.	.	.	.	.	.	.	.	.	.
8.AAL]	16eLL	.	.	.	16aLL	pa	4a]	.	.	.	.	.	.	.	.
.	16d	.	.	.	16g	la	.	.	.	.	.	.	.	.	.
.	16c	.	.	.	16f	pa	.	.	.	.	.	.	.	.	.
[16GGJk	[16dJJ	.	.	.	[16gJJ	pa	.	.	.	.	.	.	.	.	.
8GGL]	16dLL]	.	.	.	16gLL]	.	4d	.	.	.	.	.	.	.	.
.	16cJ	.	.	.	16fJ	pa	.	.	.	.	.	.	.	.	.
8C#XJ	8AJ	.	.	.	8dJ	la	.	.	.	.	.	.	.	.	.
=76	=76	=76	=76	=76	=76	=76	=76	=76	=76	=76	=76	=76	=76	=76	=76
8.DL	8GL	.	.	.	8cL	pa	[1f	fu	.	[1c	.	1r	.	.	.
.	8AJ	.	.	.	8dJ	pa	.	.	.	.	.	.	.	.	.
[16AAJk	.	.	.	.	.	.	.	.	.	.	.	.	.	.	.
8AAL]	4r	.	.	.	4r	.	.	.	.	.	.	.	.	.	.
16DL	.	.	.	.	.	.	.	.	.	.	.	.	.	.	.
[16EJJ	.	.	.	.	.	.	.	.	.	.	.	.	.	.	.
8.EL]	8.r	.	.	.	8.r	.	.	.	.	.	.	.	.	.	.
[16DJk	16e	.	.	.	16a	pa	.	.	.	.	.	.	.	.	.
8DL]	16r	.	.	.	16r	.	.	.	.	.	.	.	.	.	.
.	16d	.	.	.	16g	pa	.	.	.	.	.	.	.	.	.
8AAJ	16r	.	.	.	16r	.	.	.	.	.	.	.	.	.	.
.	16c	.	.	.	16f	pa	.	.	.	.	.	.	.	.	.
=77	=77	=77	=77	=77	=77	=77	=77	=77	=77	=77	=77	=77	=77	=77	=77
8.DL	16ALL	.	.	.	16dLL	pa	4.f]	.	.	4.c]	.	1r	.	.	.
.	16c	.	.	.	16f	la	.	.	.	.	.	.	.	.	.
.	16d	.	.	.	16g	pa	.	.	.	.	.	.	.	.	.
[16AAJk	[16GJJ	.	.	.	[16cJJ	pa	.	.	.	.	.	.	.	.	.
8AAL]	8GL]	.	.	.	8cL]	.	.	.	.	.	.	.	.	.	.
16DL	16EL	.	.	.	16AL	pa	[8f	fu	.	[8c	.	.	.	.	.
[16EJJ	16GJJ	.	.	.	16cJJ	la	.	.	.	.	.	.	.	.	.
8.EL]	16ALL	.	.	.	16dLL	pa	8fL]	.	.	8cL]	.	.	.	.	.
.	16G	.	.	.	16c	la	.	.	.	.	.	.	.	.	.
.	16A	.	.	.	16d	pa	[8aJ	.	.	[8fJ	.	.	.	.	.
[16DJk	16GJJ	.	.	.	[16cJJ	pa	.	.	.	.	.	.	.	.	.
8DL]	8GL	.	.	.	8cL]	.	16aKL]	.	.	16fKL]	.	.	.	.	.
.	.	.	.	.	.	.	8.fJ	.	.	8.cJ	.	.	.	.	.
8AAJ	16EL	.	.	.	16AL	pa	.	.	.	.	.	.	.	.	.
.	16GJJ	.	.	.	[16c-XJJ	la	.	.	.	.	.	.	.	.	.
=78	=78	=78	=78	=78	=78	=78	=78	=78	=78	=78	=78	=78	=78	=78	=78
8.GGL	8GL	.	.	.	8c-L]	.	[1f	fu	.	2..d	.	1r	.	.	.
.	8GJ	.	.	.	8c-XJ	pa	.	.	.	.	.	.	.	.	.
[16GGJk	.	.	.	.	.	.	.	.	.	.	.	.	.	.	.
8GGL]	4r	.	.	.	4r	.	.	.	.	.	.	.	.	.	.
16GGL	.	.	.	.	.	.	.	.	.	.	.	.	.	.	.
[16AAJJ	.	.	.	.	.	.	.	.	.	.	.	.	.	.	.
8.AAL]	4r	.	.	.	4r	.	.	.	.	.	.	.	.	.	.
[16GGJk	.	.	.	.	.	.	.	.	.	.	.	.	.	.	.
8GGL]	16GLL	.	.	.	16c-LL	pa	.	.	.	.	.	.	.	.	.
.	16AJJ	.	.	.	16dJJ	la	.	.	.	.	.	.	.	.	.
8GGJ	16r	.	.	.	16r	.	.	.	.	[8c	.	.	.	.	.
.	16c	.	.	.	16f	pa	.	.	.	.	.	.	.	.	.
=79	=79	=79	=79	=79	=79	=79	=79	=79	=79	=79	=79	=79	=79	=79	=79
8.GGL	16r	.	.	.	16r	.	1f]	fu	.	4.c]	.	1r	.	.	.
.	[8.A	.	.	.	[8.d	pa	.	.	.	.	.	.	.	.	.
[16GGJk	.	.	.	.	.	.	.	.	.	.	.	.	.	.	.
8GGL]	4A]	.	.	.	4d]	.	.	.	.	.	.	.	.	.	.
16GGL	.	.	.	.	.	.	.	.	.	[8d	.	.	.	.	.
[16AAJJ	.	.	.	.	.	.	.	.	.	.	.	.	.	.	.
8.AAL]	8eL	.	.	.	8a-XL	pa	.	.	.	2d]	.	.	.	.	.
.	16dL	.	.	.	16gL	pa	.	.	.	.	.	.	.	.	.
[16GGJk	16cJJ	.	.	.	16fJJ	pa	.	.	.	.	.	.	.	.	.
8GGL]	16dKL	.	.	.	16gKL	.	.	.	.	.	.	.	.	.	.
.	8.cJ	.	.	.	8.fJ	pa	.	.	.	.	.	.	.	.	.
8GGJ	.	.	.	.	.	.	.	.	.	.	.	.	.	.	.
=80	=80	=80	=80	=80	=80	=80	=80	=80	=80	=80	=80	=80	=80	=80	=80
8.DL	4r	.	.	.	4r	.	4r	.	.	4r	.	1r	.	.	.
[16AAJk	.	.	.	.	.	.	.	.	.	.	.	.	.	.	.
8AAL]	[4c	.	.	.	4e	fu	[4a	.	fu	[4f	.	.	.	.	.
16DL	.	.	.	.	.	.	.	.	.	.	.	.	.	.	.
[16EJJ	.	.	.	.	.	.	.	.	.	.	.	.	.	.	.
8.EL]	2c]	.	.	.	2d	.	2a]	.	.	2f]	.	.	.	.	.
[16DJk	.	.	.	.	.	.	.	.	.	.	.	.	.	.	.
8DL]	.	.	.	.	.	.	.	.	.	.	.	.	.	.	.
8AAJ	.	.	.	.	.	.	.	.	.	.	.	.	.	.	.
=81	=81	=81	=81	=81	=81	=81	=81	=81	=81	=81	=81	=81	=81	=81	=81
8.DL	8.AL	.	.	.	8.cL	wow-	8.fL	.	wow-	8.dL	.	1r	.	.	.
[16AAJk	[16cJk	.	.	.	[16dJk	-ow	[16aJk	.	-ow	[16fJk	.	.	.	.	.
8AAL]	8cL]	.	.	.	8dL]	.	8aL]	.	.	8fL]	.	.	.	.	.
8DJ	[8AJ	.	.	.	[8cJ	wow-	[8fJ	.	wow-	[8dJ	.	.	.	.	.
4G	16AKL]	.	.	.	16cKL]	.	16fKL]	.	.	16dKL]	.	.	.	.	.
.	8.cJ	.	.	.	8.eJ	-ow-	8.aJ	.	-ow-	8.fJ	.	.	.	.	.
4D	4d	.	.	.	4f	-ah	4cc	.	-ah	4a	.	.	.	.	.
=82||	=82||	=82||	=82||	=82||	=82||	=82||	=82||	=82||	=82||	=82||	=82||	=82||	=82||	=82||	=82||
4.GG	2B-	fu	.	.	2d	fu	1r	.	.	2f	fu	1r	.	.	.
8GG	.	.	.	.	.	.	.	.	.	.	.	.	.	.	.
4.GG	2r	.	.	.	2r	.	.	.	.	2r	.	.	.	.	.
8BB-	.	.	.	.	.	.	.	.	.	.	.	.	.	.	.
=83	=83	=83	=83	=83	=83	=83	=83	=83	=83	=83	=83	=83	=83	=83	=83
4.C-X	1c#X	.	.	.	1d	.	6r	.	.	1f#X	.	1r	.	.	.
.	.	.	.	.	.	.	6g-X	lu	.	.	.	.	.	.	.
.	.	.	.	.	.	.	6e	lu	.	.	.	.	.	.	.
[8C-	.	.	.	.	.	.	.	.	.	.	.	.	.	.	.
8C-L]	.	.	.	.	.	.	6d	lu	.	.	.	.	.	.	.
8GG-X	.	.	.	.	.	.	.	.	.	.	.	.	.	.	.
.	.	.	.	.	.	.	6e	lu	.	.	.	.	.	.	.
8C-	.	.	.	.	.	.	.	.	.	.	.	.	.	.	.
.	.	.	.	.	.	.	6g-	lu	.	.	.	.	.	.	.
8BB-J	.	.	.	.	.	.	.	.	.	.	.	.	.	.	.
=84	=84	=84	=84	=84	=84	=84	=84	=84	=84	=84	=84	=84	=84	=84	=84
4.BB-	2B-	.	.	.	2c	.	4.r	.	.	2f	.	1r	.	.	.
8BB-	.	.	.	.	.	.	8e	lu	.	.	.	.	.	.	.
2BB-	2r	.	.	.	2r	.	4d	lu	.	2r	.	.	.	.	.
.	.	.	.	.	.	.	8r	.	.	.	.	.	.	.	.
.	.	.	.	.	.	.	8d	lu	.	.	.	.	.	.	.
=85	=85	=85	=85	=85	=85	=85	=85	=85	=85	=85	=85	=85	=85	=85	=85
4.D	1A	.	.	.	2d	.	4d-X	lu	.	1g-X	.	1r	.	.	.
.	.	.	.	.	.	.	4r	.	.	.	.	.	.	.	.
[8E	.	.	.	.	.	.	.	.	.	.	.	.	.	.	.
8EL]	.	.	.	.	6r	.	6r	.	.	.	.	.	.	.	.
8D	.	.	.	.	.	.	.	.	.	.	.	.	.	.	.
.	.	.	.	.	6A	.	6d-	lu	.	.	.	.	.	.	.
8AA	.	.	.	.	.	.	.	.	.	.	.	.	.	.	.
.	.	.	.	.	6B-	.	6dn	lu	.	.	.	.	.	.	.
8EEJ	.	.	.	.	.	.	.	.	.	.	.	.	.	.	.
=86	=86	=86	=86	=86	=86	=86	=86	=86	=86	=86	=86	=86	=86	=86	=86
4.GG	2c	.	.	.	12dL	.	12fL	lu	.	2f	.	1r	.	.	.
.	.	.	.	.	12c	.	12e	lu	.	.	.	.	.	.	.
.	.	.	.	.	12B-J	.	12dJ	lu	.	.	.	.	.	.	.
.	.	.	.	.	12r	.	12r	.	.	.	.	.	.	.	.
.	.	.	.	.	12r	.	12r	.	.	.	.	.	.	.	.
8GG	.	.	.	.	.	.	.	.	.	.	.	.	.	.	.
.	.	.	.	.	12g-X	.	12a	lu	.	.	.	.	.	.	.
4.GG	2r	.	.	.	12eL	.	12gL	lu	.	2r	.	.	.	.	.
.	.	.	.	.	12d	.	12g-X	lu	.	.	.	.	.	.	.
.	.	.	.	.	12B-J	.	12dJ	lu	.	.	.	.	.	.	.
.	.	.	.	.	12r	.	12r	.	.	.	.	.	.	.	.
.	.	.	.	.	12aL	.	12ccL	lu	.	.	.	.	.	.	.
8BB-	.	.	.	.	.	.	.	.	.	.	.	.	.	.	.
.	.	.	.	.	12g-J	.	12b-J	lu	.	.	.	.	.	.	.
=87	=87	=87	=87	=87	=87	=87	=87	=87	=87	=87	=87	=87	=87	=87	=87
4.C-X	1c#X	.	.	.	12fL	.	12aL	lu	.	1f#X	.	1r	.	.	.
.	.	.	.	.	12e-X	.	12g-X	lu	.	.	.	.	.	.	.
.	.	.	.	.	12B-J	.	12dJ	lu	.	.	.	.	.	.	.
.	.	.	.	.	4r	.	4r	.	.	.	.	.	.	.	.
[8C-	.	.	.	.	.	.	.	.	.	.	.	.	.	.	.
8C-L]	.	.	.	.	8r	.	8r	.	.	.	.	.	.	.	.
8GG-X	.	.	.	.	[8d	.	[8g-	lu	.	.	.	.	.	.	.
8C-	.	.	.	.	16dKL]	.	16g-KL]	.	.	.	.	.	.	.	.
.	.	.	.	.	8.fJ	.	8.aJ	lu	.	.	.	.	.	.	.
8BB-J	.	.	.	.	.	.	.	.	.	.	.	.	.	.	.
=88	=88	=88	=88	=88	=88	=88	=88	=88	=88	=88	=88	=88	=88	=88	=88
4.BB-	1d	.	.	.	4cc	.	4ee	lu	.	1f	.	1r	.	.	.
.	.	.	.	.	8r	.	8r	.	.	.	.	.	.	.	.
8BB-	.	.	.	.	8cc	.	8ee	lu	.	.	.	.	.	.	.
2BB-	.	.	.	.	4b-	.	4dd	lu	.	.	.	.	.	.	.
.	.	.	.	.	8r	.	8r	.	.	.	.	.	.	.	.
.	.	.	.	.	8b-	.	8dd	lu	.	.	.	.	.	.	.
=89	=89	=89	=89	=89	=89	=89	=89	=89	=89	=89	=89	=89	=89	=89	=89
4D	1r	.	.	.	4a	.	4dd-X	lu	.	4r	.	4r	.	.	.
4r	.	.	.	.	8r	.	8r	.	.	4r	.	4r	.	.	.
.	.	.	.	.	8a	.	8dd-	lu	.	.	.	.	.	.	.
4DD	.	.	.	.	4f	.	4a	lu	.	4d	ちょう	4d	ちょう	.	.
4D	.	.	.	.	4r	.	4r	.	.	4f	ど	4f	ど	.	.
=90||	=90||	=90||	=90||	=90||	=90||	=90||	=90||	=90||	=90||	=90||	=90||	=90||	=90||	=90||	=90||
2BB-	8r	.	.	.	8r	.	8r	.	.	4a	たい	4a	たい	.	.
.	8d	.	.	.	8f	.	8a	t	.	.	.	.	.	.	.
.	16r	.	.	.	16r	.	16r	.	.	4a	りん	4a	りん	.	.
.	16d	.	.	.	16f	.	16a	t	.	.	.	.	.	.	.
.	16r	.	.	.	16r	.	16r	.	.	.	.	.	.	.	.
.	16c#X	.	.	.	16e	.	16g	t	.	.	.	.	.	.	.
2AA	16r	.	.	.	16rdd	.	16r	.	.	8aL	の	8aL	の	.	.
.	8c#	.	.	.	8e	.	8g	t	.	.	.	.	.	.	.
.	.	.	.	.	.	.	.	.	.	8f	し	8f	し	.	.
.	16r	.	.	.	16r	.	16r	.	.	.	.	.	.	.	.
.	4c#	.	.	.	4e	.	4g	t	.	8g	だ	8g	だ	.	.
.	.	.	.	.	.	.	.	.	.	8dJ	れ	8dJ	れ	.	.
=91	=91	=91	=91	=91	=91	=91	=91	=91	=91	=91	=91	=91	=91	=91	=91
2D	8r	.	.	.	8r	.	8r	.	.	4f	や	4f	や	.	.
.	8c	.	.	.	8e	.	8a	.	.	.	.	.	.	.	.
.	16r	.	.	.	16r	.	16r	.	.	8dL	な	8dL	な	.	.
.	16c	.	.	.	16e	.	16a	.	.	.	.	.	.	.	.
.	16r	.	.	.	16r	.	16r	.	.	[8cJ	ぎ	[8cJ	ぎ	.	.
.	16c	.	.	.	16e-X	.	16g	.	.	.	.	.	.	.	.
2FF	16r	.	.	.	16r	.	16r	.	.	8c]	.	8c]	.	.	.
.	8c	.	.	.	8e-	.	8g	.	.	.	.	.	.	.	.
.	.	.	.	.	.	.	.	.	.	8r	.	8r	.	.	.
.	16r	.	.	.	16r	.	16r	.	.	.	.	.	.	.	.
.	4c	.	.	.	4e-	.	4g	.	.	8dL	よ	8dL	よ	.	.
.	.	.	.	.	.	.	.	.	.	8fJ	み	8fJ	み	.	.
=92	=92	=92	=92	=92	=92	=92	=92	=92	=92	=92	=92	=92	=92	=92	=92
2BB-	8r	.	.	.	8r	.	8r	.	.	8ccL	が	8ccL	が	.	.
.	8d	.	.	.	8f	.	8a	.	.	8ccJ	え	8ccJ	え	.	.
.	16r	.	.	.	16r	.	16r	.	.	8.ccL	る	8.ccL	る	.	.
.	16d	.	.	.	16f	.	16a	.	.	.	.	.	.	.	.
.	16r	.	.	.	16r	.	16r	.	.	.	.	.	.	.	.
.	16d-X	.	.	.	16f	.	16a	.	.	16ccJk	ひ	16ccJk	ひ	.	.
2AA	16r	.	.	.	16r	.	16r	.	.	8ccL	と	8ccL	と	.	.
.	8d-	.	.	.	8f	.	8g	.	.	.	.	.	.	.	.
.	.	.	.	.	.	.	.	.	.	8a-X	よ	8a-X	よ	.	.
.	16r	.	.	.	16r	.	16r	.	.	.	.	.	.	.	.
.	4d-	.	.	.	4f	.	4g	.	.	8g	の	8g	の	.	.
.	.	.	.	.	.	.	.	.	.	[8fJ	そう	[8fJ	そう	.	.
=93	=93	=93	=93	=93	=93	=93	=93	=93	=93	=93	=93	=93	=93	=93	=93
2D	8r	.	.	.	8r	.	8r	.	.	8fL]	.	8fL]	.	.	.
.	8c	.	.	.	8d	.	8e	t	.	8gJ	ま	8gJ	ま	.	.
.	16r	.	.	.	16r	.	16r	.	.	8aL	とう	8aL	とう	.	.
.	16c	.	.	.	16e	.	16a	t	.	.	.	.	.	.	.
.	16r	.	.	.	16r	.	16r	.	.	16gL	.	16gL	.	.	.
.	16d#X	.	.	.	16a	.	16cc	t	.	[16aJJ	.	[16aJJ	.	.	.
2FF	16r	.	.	.	16r	.	16r	.	.	8a]	.	8a]	.	.	.
.	8d#	.	.	.	8a	.	8cc	t	.	.	.	.	.	.	.
.	.	.	.	.	.	.	.	.	.	8r	.	8r	.	.	.
.	16r	.	.	.	16r	.	16r	.	.	.	.	.	.	.	.
.	4d#	.	.	.	4a	.	4cc	t	.	4f	ah	4f	ah	.	.
=94	=94	=94	=94	=94	=94	=94	=94	=94	=94	=94	=94	=94	=94	=94	=94
2BB-	8r	.	.	.	8r	.	8r	.	.	8r	.	8r	.	.	.
.	16ALL	.	の	.	8f	.	8a	t	.	8d	.	16ALL	.	の	.
.	[16dJJ	.	が	.	.	.	.	.	.	.	.	[16dJJ	.	が	.
.	16dKL]	.	.	.	8.fL	.	8.aL	t	.	8.dL	.	16dKL]	.	.	.
.	8e	.	す	.	.	.	.	.	.	.	.	8e	.	す	.
.	[16fJk	.	ま	.	16fJk	.	16aJk	t	.	16dJk	.	[16fJk	.	ま	.
2AA	16fLL]	.	.	.	16r	.	16r	.	.	16r	.	16fLL]	.	.	.
.	16g	.	じ	.	16e	.	16g	t	.	16d-X	.	16g	.	じ	.
.	16A	.	の	.	16r	.	16r	.	.	16r	.	16A	.	の	.
.	[16dJJ	.	が	.	[16e	.	[16g	.	.	[16d-	.	[16dJJ	.	が	.
.	16dKL]	.	.	.	16e]	.	16g]	t	.	16d-]	.	16dKL]	.	.	.
.	8e	.	す	.	16r	.	16r	.	.	16r	.	8e	.	す	.
.	.	.	.	.	16e	.	16g	t	.	16d-	.	.	.	.	.
.	[16fJk	.	ま	.	16r	.	16r	.	.	16r	.	[16fJk	.	ま	.
=95	=95	=95	=95	=95	=95	=95	=95	=95	=95	=95	=95	=95	=95	=95	=95
2D	16fLL]	.	.	.	16r	.	16r	.	.	16r	.	16fLL]	.	.	.
.	16g	.	.	じ	8.e	.	8.a	t	.	8.c	.	16g	.	.	じ
.	16A	.	.	の	.	.	.	.	.	.	.	16A	.	.	の
.	[16dJJ	.	.	が	.	.	.	.	.	.	.	[16dJJ	.	.	が
.	16dKL]	.	.	.	16e	.	16a	t	.	16c	.	16dKL]	.	.	.
.	8e	.	.	す	16r	.	16r	.	.	16r	.	8e	.	.	す
.	.	.	.	.	8e	.	8a	t	.	8c	.	.	.	.	.
.	[16fJk	.	.	ま	.	.	.	.	.	.	.	[16fJk	.	.	ま
2FF	16fLL]	.	.	.	8r	.	8r	.	.	8r	.	16fLL]	.	.	.
.	16gJJ	.	.	じ	.	.	.	.	.	.	.	16gJJ	.	.	じ
.	8r	.	.	.	8f	.	8a	t	.	8r	.	8r	.	.	.
.	8gL	わ	.	.	16r	.	16r	.	.	8b-L	わ	8b-L	わ	.	.
.	.	.	.	.	8.f	.	8.a	t	.	.	.	.	.	.	.
.	[8aJ	.	.	.	.	.	.	.	.	[8ccJ	.	[8ccJ	.	.	.
=96	=96	=96	=96	=96	=96	=96	=96	=96	=96	=96	=96	=96	=96	=96	=96
2BB-	8aL]	.	.	.	4.f	.	4.a	tu	.	8ccL]	.	8ccL]	.	.	.
.	8b-	れ	.	.	.	.	.	.	.	8dd	れ	8dd	れ	.	.
.	8f	ら	.	.	.	.	.	.	.	8a	ら	8a	ら	.	.
.	8aJ	の	.	.	8f	.	8a	t	.	8ccJ	の	8ccJ	の	.	.
4.AA	4e	な	.	.	16r	.	16r	.	.	4g	な	4g	な	.	.
.	.	.	.	.	16f	.	16g	t	.	.	.	.	.	.	.
.	.	.	.	.	16r	.	16r	.	.	.	.	.	.	.	.
.	.	.	.	.	[16f	.	[16g	tu	.	.	.	.	.	.	.
.	8fL	つ	.	.	8fL]	.	8gL]	.	.	8aL	つ	8aL	つ	.	.
16AALL	[8dJ	を	.	.	16fL	.	16gL	tu	.	8eJ	を	8eJ	を	.	.
16AAJJ	.	.	.	.	16fJJ	.	16gJJ	lu	.	.	.	.	.	.	.
=97	=97	=97	=97	=97	=97	=97	=97	=97	=97	=97	=97	=97	=97	=97	=97
12DL	4d]	.	.	.	12eL	.	12aL	da	.	4f	.	4f	.	.	.
12D	.	.	.	.	12e	.	12a	na	.	.	.	.	.	.	.
12DJ	.	.	.	.	12eJ	.	12aJ	na	.	.	.	.	.	.	.
4r	4r	.	.	.	4r	.	4r	.	.	4r	.	4r	.	.	.
2r	2r	.	.	.	2r	.	2r	.	.	4d	ちょい	4d	ちょい	.	.
.	.	.	.	.	.	.	.	.	.	4f	と	4f	と	.	.
=98	=98	=98	=98	=98	=98	=98	=98	=98	=98	=98	=98	=98	=98	=98	=98
12D#XL	12d#XL	.	.	.	12f#XL	.	12aL	da	.	4r	.	4r	.	.	.
12D#	12d#	.	.	.	12f#	.	12a	na	.	.	.	.	.	.	.
12D#J	12d#J	.	.	.	12f#J	.	12aJ	na	.	.	.	.	.	.	.
4r	4r	.	.	.	4r	.	4r	.	.	4r	.	4r	.	.	.
2r	2r	.	.	.	2r	.	2r	.	.	4d#X	ちょい	4d#X	ちょい	.	.
.	.	.	.	.	.	.	.	.	.	4f#X	と	4f#X	と	.	.
=99||	=99||	=99||	=99||	=99||	=99||	=99||	=99||	=99||	=99||	=99||	=99||	=99||	=99||	=99||	=99||
*k[b-e-a-d-g-c-]	*k[b-e-a-d-g-c-]	*	*	*	*k[b-e-a-d-g-c-]	*	*k[b-e-a-d-g-c-]	*	*	*k[b-e-a-d-g-c-]	*	*k[b-e-a-d-g-c-]	*	*	*
8C-L	8r	.	.	.	8r	.	8r	.	.	4b-	おん	4b-	おん	.	.
8C-'	8e-'	.	.	.	8g-'	.	8b-'	pa	.	.	.	.	.	.	.
8C-	8.e-L	.	.	.	8.g-L	.	8.b-L	pa	.	4b-	な	4b-	な	.	.
8C-'J	.	.	.	.	.	.	.	.	.	.	.	.	.	.	.
.	16e-Jk	.	.	.	16g-Jk	.	16b-Jk	la	.	.	.	.	.	.	.
8BB-L	16r	.	.	.	16r	.	16r	.	.	8b-L	ざ	8b-L	ざ	.	.
.	16dnKL	.	.	.	16fKL	.	16b-KL	pa	.	.	.	.	.	.	.
8BB-'	8d'J	.	.	.	8f'J	.	8b-'J	la	.	8g-	か	8g-	か	.	.
8BB-	8d'L	.	.	.	8f'L	.	8b-'L	pa	.	8a-	り	8a-	り	.	.
8Dn'J	8d'J	.	.	.	8f'J	.	8b-'J	pa	.	8e-J	を	8e-J	を	.	.
=100	=100	=100	=100	=100	=100	=100	=100	=100	=100	=100	=100	=100	=100	=100	=100
8E-L	8r	.	.	.	8r	.	8r	.	.	4g-	どう	4g-	どう	.	.
8E-'	8d-'	.	.	.	8f'	.	8b-'	pa	.	.	.	.	.	.	.
8E-	8d-'	.	.	.	8f'	.	8b-'	pa	.	8e-L	し	8e-L	し	.	.
8E-'J	16r	.	.	.	16r	.	16r	.	.	[8d-J	やう	[8d-J	やう	.	.
.	16d-	.	.	.	16f	.	16b-	pa	.	.	.	.	.	.	.
8G-L	16r	.	.	.	16r	.	16r	.	.	8d-]	.	8d-]	.	.	.
.	16d-KL	.	.	.	16enKL	.	16b-KL	pa-	.	.	.	.	.	.	.
8G-'	8d-J	.	.	.	8eJ	.	8b-J	-i	.	8r	.	8r	.	.	.
8D-	8d-'L	.	.	.	8e'L	.	8b-'L	ya	.	8e-L	こ	8e-L	こ	.	.
8D-'J	8d-'J	.	.	.	8e'J	.	8b-'J	pa	.	8g-J	の	8g-J	の	.	.
=101	=101	=101	=101	=101	=101	=101	=101	=101	=101	=101	=101	=101	=101	=101	=101
8C-L	8r	.	.	.	8r	.	8r	.	.	4dd-	ま	4dd-	ま	.	.
8C-'	8c-'	.	.	.	8g-'	.	8b-'	pa	.	.	.	.	.	.	.
8C-	8.c-L	.	.	.	8.g-L	.	8.b-L	pa	.	4dd-	ま	4dd-	ま	.	.
8C-'J	.	.	.	.	.	.	.	.	.	.	.	.	.	.	.
.	16c-Jk	.	.	.	16g-Jk	.	16b-Jk	la	.	.	.	.	.	.	.
8BB-L	16r	.	.	.	16r	.	16r	.	.	8dd-L	ぢゃ	8dd-L	ぢゃ	.	.
.	16dnKL	.	.	.	16fKL	.	16a-KL	pa	.	.	.	.	.	.	.
8BB-'	8d'J	.	.	.	8f'J	.	8a-'J	la	.	8an	ま	8an	ま	.	.
8Dn	8d'L	.	.	.	8f'L	.	8a-'L	pa	.	8a-X	だ	8a-X	だ	.	.
8D'J	8d'J	.	.	.	8f'J	.	8a-'J	pa	.	[8g-J	お	[8g-J	お	.	.
=102	=102	=102	=102	=102	=102	=102	=102	=102	=102	=102	=102	=102	=102	=102	=102
8E-L	8.g-L	.	.	.	8.b-L	.	8.ee-L	wow-	.	16g-LL]	.	16g-LL]	.	.	.
.	.	.	.	.	.	.	.	.	.	16g-J	わ	16g-J	わ	.	.
8E-'	.	.	.	.	.	.	.	.	.	8a-J	ら	8a-J	ら	.	.
.	16fJk	.	.	.	[16b-Jk	.	[16ddnJk	-ow-	.	.	.	.	.	.	.
8E-	8fL	.	.	.	8b-L]	.	8ddL]	.	.	8b-L	な	8b-L	な	.	.
8E-'J	[8e-J	.	.	.	[8b-J	.	[8dd-XJ	-ow-	.	16anL	.	16anL	.	.	.
.	.	.	.	.	.	.	.	.	.	[16b-JJ	.	[16b-JJ	.	.	.
8G-L	16e-KL]	.	.	.	16b-KL]	.	16dd-KL]	.	.	8b-]	い	8b-]	い	.	.
.	8.dnJ	.	.	.	8.anJ	.	8.ccnJ	-ow	.	.	.	.	.	.	.
8G-'	.	.	.	.	.	.	.	.	.	8r	.	8r	.	.	.
8G-	8d-XL	.	.	.	8a-XL	.	8cc-XL	wa	.	[4g-	uh	[4g-	uh	.	.
8G-'J	8d-J	.	.	.	8g-J	.	8b-J	o	.	.	.	.	.	.	.
=103	=103	=103	=103	=103	=103	=103	=103	=103	=103	=103	=103	=103	=103	=103	=103
8C-L	8r	.	.	.	4cc-	.	4ee-	pao	.	4g-]	.	8g-]	.	.	.
8C-'	16B-LL	.	は	.	.	.	.	.	.	.	.	16B-LL	.	は	.
.	[16e-JJ	.	な	.	.	.	.	.	.	.	.	[16e-JJ	.	な	.
8C-	16e-KL]	.	.	.	4r	.	4r	.	.	4r	.	16e-KL]	.	.	.
.	8f	.	ざ	.	.	.	.	.	.	.	.	8f	.	ざ	.
8C-'J	.	.	.	.	.	.	.	.	.	.	.	.	.	.	.
.	[16g-Jk	.	か	.	.	.	.	.	.	.	.	[16g-Jk	.	か	.
8BB-L	16g-LL]	.	.	.	8r	.	2r	.	.	2r	.	16g-LL]	.	.	.
.	16a-	.	り	.	.	.	.	.	.	.	.	16a-	.	り	.
8BB-'	16B-	.	い	.	16B-LL	い	.	.	.	.	.	16B-	.	い	.
.	[16e-JJ	.	ろ	.	[16c-JJ	ろ	.	.	.	.	.	[16e-JJ	.	ろ	.
8Dn	16e-KL]	.	.	.	16c-KL]	.	.	.	.	.	.	16e-KL]	.	.	.
.	8f	.	ざ	.	8d-	ざ	.	.	.	.	.	8f	.	ざ	.
8D'J	.	.	.	.	.	.	.	.	.	.	.	.	.	.	.
.	[16g-Jk	.	か	.	[16e-Jk	か	.	.	.	.	.	[16g-Jk	.	か	.
=104	=104	=104	=104	=104	=104	=104	=104	=104	=104	=104	=104	=104	=104	=104	=104
8E-L	16g-LL]	.	.	.	16e-LL]	.	8r	.	.	2r	.	16g-LL]	.	.	.
.	16a-	.	り	.	16f	り	.	.	.	.	.	16a-	.	り	.
8E-'	16B-	.	ah	.	16B-	ah	16d-LL	ah	.	.	.	16B-	.	ah	.
.	[16e-JJ	.	まっ	.	[16c-JJ	まっ	[16g-JJ	まっ	.	.	.	[16e-JJ	.	まっ	.
8E-	16e-KL]	.	.	.	16c-KL]	.	16g-KL]	.	.	.	.	16e-KL]	.	.	.
.	8f	.	さ	.	8d-	さ	8a-	さ	.	.	.	8f	.	さ	.
8E-'J	.	.	.	.	.	.	.	.	.	.	.	.	.	.	.
.	[16g-Jk	.	か	.	[16e-Jk	か	[16b-Jk	か	.	.	.	[16g-Jk	.	か	.
8G-L	16g-LL]	.	.	.	16e-LL]	.	16b-LL]	.	.	4r	.	16g-LL]	.	.	.
.	16a-JJ	.	り	.	16fJJ	り	16cc-JJ	り	.	.	.	16a-JJ	.	り	.
8G-'	8r	.	.	.	8r	.	8r	.	.	.	.	8r	.	.	.
8D-	16B-LL	.	ah	.	[4g-	ah	[4b-	ah	.	16b-LL	ah	16b-LL	ah	.	.
.	16c-J	.	.	.	.	.	.	.	.	16dd-J	.	16dd-J	.	.	.
8D-'J	[8d-J	.	.	.	.	.	.	.	.	[8dd-J	.	[8dd-J	.	.	.
=105	=105	=105	=105	=105	=105	=105	=105	=105	=105	=105	=105	=105	=105	=105	=105
8C-L	8d-L]	.	.	.	8g-L]	.	8b-L]	.	.	8dd-L]	.	8dd-L]	.	.	.
8C-'	8e-	.	.	.	8g-	.	8cc-	.	.	8ee-	.	8ee-	.	.	.
8C-	8B-	.	.	.	8e-	.	8g-	.	.	8b-	.	8b-	.	.	.
8C-'J	8d-J	.	ま	.	8g-J	ま	8b-J	ま	.	8dd-J	ま	8dd-J	ま	.	.
8BB-L	4A-	.	だ	.	4dn	だ	4f	だ	.	4a-	だ	4a-	だ	.	.
8BB-'	.	.	.	.	.	.	.	.	.	.	.	.	.	.	.
8Dn	4B-	.	ま	.	4d	ま	4g-	ま	.	8b-L	ま	8b-L	ま	.	.
8D'J	.	.	.	.	.	.	.	.	.	[8g-J	だ	[8g-J	だ	.	.
=106	=106	=106	=106	=106	=106	=106	=106	=106	=106	=106	=106	=106	=106	=106	=106
12E-L	12e-L	da	.	.	12g-L	da	12b-L	da	.	4g-]	.	4g-]	.	.	.
12E-	12e-	na	.	.	12g-	na	12b-	na	.	.	.	.	.	.	.
12E-J	12e-J	na	.	.	12g-J	na	12b-J	na	.	.	.	.	.	.	.
8r	8r	.	.	.	8r	.	8r	.	.	4r	.	4r	.	.	.
16E-LL	16g-LL	da	.	.	16b-LL	da	16ee-LL	.	da	.	.	.	.	.	.
16E-JJ	16g-JJ	da	.	.	16b-JJ	da	16ee-JJ	.	da	.	.	.	.	.	.
4.r	2r	.	.	.	8r	.	8r	.	.	8r	.	8r	.	.	.
.	.	.	.	.	8f	wa	8a-	wa	.	8dd-	wa	8dd-	wa	.	.
.	.	.	.	.	8g-L	.	8cc-L	.	.	8ee-L	.	8ee-L	.	.	.
[8C-	.	.	.	.	16fL	.	16a-L	.	.	16dd-L	.	16dd-L	.	.	.
.	.	.	.	.	[16g-JJ	.	[16cc-JJ	.	.	[16ee-JJ	.	[16ee-JJ	.	.	.
=107||	=107||	=107||	=107||	=107||	=107||	=107||	=107||	=107||	=107||	=107||	=107||	=107||	=107||	=107||	=107||
8.C-L]	4r	.	.	.	16g-LL]	.	16cc-LL]	.	.	16ee-LL]	.	16ee-LL]	.	.	.
.	.	.	.	.	16fJ	.	16a-J	.	.	16dd-J	.	16dd-J	.	.	.
.	.	.	.	.	8g-J	.	8cc-J	.	.	8ee-J	.	8ee-J	.	.	.
16GG-Jk	.	.	.	.	.	.	.	.	.	.	.	.	.	.	.
8.GG-L	16E-LL	.	pa	.	16fKL	.	16a-KL	.	.	16dd-KL	.	16dd-KL	.	.	.
.	16FJJ	.	la	.	8g-	.	8cc-	.	.	8ee-	.	8ee-	.	.	.
.	16r	.	.	.	.	.	.	.	.	.	.	.	.	.	.
16BB-Jk	[16G-	.	pa	.	16fJk	.	16a-Jk	.	.	16dd-Jk	.	16dd-Jk	.	.	.
8.BB-L	8G-L]	.	.	.	8g-L	.	8cc-L	.	.	8ee-L	.	8ee-L	.	.	.
.	8E--	.	la	.	16fL	.	16a-L	.	.	16dd-L	.	16dd-L	.	.	.
16FFJk	.	.	.	.	[16g-JJ	.	[16cc-JJ	.	.	[16ee-JJ	.	[16ee-JJ	.	.	.
8.FFL	8B-	.	pa	.	16g-LL]	.	16cc-LL]	.	.	16ee-LL]	.	16ee-LL]	.	.	.
.	.	.	.	.	16fJ	.	16a-J	.	.	16dd-J	.	16dd-J	.	.	.
.	8A-J	.	la	.	8g-J	.	8cc-J	.	.	8ee-J	.	8ee-J	.	.	.
16E-Jk	.	.	.	.	.	.	.	.	.	.	.	.	.	.	.
=108	=108	=108	=108	=108	=108	=108	=108	=108	=108	=108	=108	=108	=108	=108	=108
8.E-L	4G-	.	pa	.	16fKL	.	16a-KL	.	.	16dd-KL	.	16dd-KL	.	.	.
.	.	.	.	.	8g-	.	8cc-	.	.	8ee-	.	8ee-	.	.	.
16BB-Jk	.	.	.	.	16fJk	.	16a-Jk	.	.	16dd-Jk	.	16dd-Jk	.	.	.
8.BB-L	4G-	.	pa	.	8g-L	.	8cc-L	.	.	8ee-L	.	8ee-L	.	.	.
.	.	.	.	.	16fL	.	16a-L	.	.	16dd-L	.	16dd-L	.	.	.
16GG-Jk	.	.	.	.	[16g-JJ	.	[16cc-JJ	.	.	[16ee-JJ	.	[16ee-JJ	.	.	.
8.GG-L	16G-LL	.	pa	.	16g-LL]	.	16cc-LL]	.	.	16ee-LL]	.	16ee-LL]	.	.	.
.	16A-	.	la	.	16fJ	.	16a-J	.	.	16dd-J	.	16dd-J	.	.	.
.	16B-	.	pa	.	8g-J	.	8cc-J	.	.	8ee-J	.	8ee-J	.	.	.
16D-Jk	16G-JJ	.	la	.	.	.	.	.	.	.	.	.	.	.	.
8.D-L	16r	.	.	.	16fKL	.	16a-KL	.	.	16dd-KL	.	16dd-KL	.	.	.
.	16A-KL	.	la	.	8g-	.	8cc-	.	.	8ee-	.	8ee-	.	.	.
.	8E-J	.	pa	.	.	.	.	.	.	.	.	.	.	.	.
16E-Jk	.	.	.	.	16fJk	.	16a-Jk	.	.	16dd-Jk	.	16dd-Jk	.	.	.
=109	=109	=109	=109	=109	=109	=109	=109	=109	=109	=109	=109	=109	=109	=109	=109
8.C-L	8G-L	.	pa	.	8g-L	.	8cc-L	.	.	8ee-L	.	8ee-L	.	.	.
.	8E-J	.	la	.	16fL	.	16a-L	.	.	16dd-L	.	16dd-L	.	.	.
16GG-Jk	.	.	.	.	[16fJJ	.	[16a-JJ	.	.	[16dd-JJ	.	[16dd-JJ	.	.	.
8.GG-L	16r	.	.	.	4f_	.	4a-_	.	.	4dd-_	.	4dd-_	.	.	.
.	16G-	.	pa	.	.	.	.	.	.	.	.	.	.	.	.
.	8r	.	.	.	.	.	.	.	.	.	.	.	.	.	.
16BB-Jk	.	.	.	.	.	.	.	.	.	.	.	.	.	.	.
8.BB-L	8E--	.	pa	.	4f]	.	4a-]	.	.	4dd-]	.	4dd-]	.	.	.
.	16r	.	.	.	.	.	.	.	.	.	.	.	.	.	.
16FFJk	[16B-	.	pa	.	.	.	.	.	.	.	.	.	.	.	.
8.FFL	8B-L]	.	.	.	4r	.	4r	.	.	4r	.	4r	.	.	.
.	8A-J	.	pa	.	.	.	.	.	.	.	.	.	.	.	.
16E-Jk	.	.	.	.	.	.	.	.	.	.	.	.	.	.	.
=110	=110	=110	=110	=110	=110	=110	=110	=110	=110	=110	=110	=110	=110	=110	=110
8.E-L	16r	.	.	.	16r	.	16r	.	.	2r	.	2r	.	.	.
.	16B-	.	la	.	16d-	la	16g-	la	.	.	.	.	.	.	.
.	16r	.	.	.	16r	.	16r	.	.	.	.	.	.	.	.
16BB-Jk	16B-	.	pa	.	16d-	pa	16g-	pa	.	.	.	.	.	.	.
4BB-	16r	.	.	.	16r	.	16r	.	.	.	.	.	.	.	.
.	16B-	.	pa	.	16d-	pa	16g-	pa	.	.	.	.	.	.	.
.	16r	.	.	.	16r	.	16r	.	.	.	.	.	.	.	.
.	16B-	.	pa	.	16d-	pa	16g-	pa	.	.	.	.	.	.	.
8.GG-L	4B-	.	fu	.	4d-	fu	4g-	fu	.	4.r	.	4.r	.	.	.
16D-Jk	.	.	.	.	.	.	.	.	.	.	.	.	.	.	.
4D-	4en	.	wa	.	4g-	wa	4b-	wa	.	.	.	.	.	.	.
.	.	.	.	.	.	.	.	.	.	8cc-	a	8cc-	a	.	.
=111	=111	=111	=111	=111	=111	=111	=111	=111	=111	=111	=111	=111	=111	=111	=111
8.C-L	8ee-L	.	uh	.	4r	.	4r	.	.	8gg-L	uh	8gg-L	uh	.	.
.	8b-J	.	.	.	.	.	.	.	.	16dd-L	.	16dd-L	.	.	.
16GG-Jk	.	.	.	.	.	.	.	.	.	16ee-JJ	.	16ee-JJ	.	.	.
8.GG-L	[4a-	.	.	.	16B-LL	.	16e-LL	pa	.	[4dd-	.	[4dd-	.	.	.
.	.	.	.	.	16c-JJ	.	16fJJ	la	.	.	.	.	.	.	.
.	.	.	.	.	16r	.	16r	.	.	.	.	.	.	.	.
16BB-Jk	.	.	.	.	[16e-	.	[16g-	pa	.	.	.	.	.	.	.
8.BB-L	8a-L]	.	.	.	8e-L]	.	8g-L]	.	.	8dd-L]	.	8dd-L]	.	.	.
.	8g-	.	.	.	8B-	.	8e--	la	.	8cc-	.	8cc-	.	.	.
16FFJk	.	.	.	.	.	.	.	.	.	.	.	.	.	.	.
8.FFL	8f	.	.	.	8B-	.	8B-	pa	.	8b-	.	8b-	.	.	.
.	8g-J	.	.	.	8e-J	.	8a-J	la	.	8cc-J	.	8cc-J	.	.	.
16E-Jk	.	.	.	.	.	.	.	.	.	.	.	.	.	.	.
=112	=112	=112	=112	=112	=112	=112	=112	=112	=112	=112	=112	=112	=112	=112	=112
8.E-L	2g-	.	.	.	4d-	.	4b-	pa	.	2b-	.	1r	.	.	.
16BB-Jk	.	.	.	.	.	.	.	.	.	.	.	.	.	.	.
8.BB-L	.	.	.	.	8.d-L	.	8.g-L	pa	.	.	.	.	.	.	.
16GG-Jk	.	.	.	.	[16B-Jk	.	[16e-Jk	.	.	.	.	.	.	.	.
8.GG-L	4r	.	.	.	8B-]	.	8e-]	pa	.	2r	.	.	.	.	.
.	.	.	.	.	8r	.	8r	.	.	.	.	.	.	.	.
16D-Jk	.	.	.	.	.	.	.	.	.	.	.	.	.	.	.
8.D-L	16B-LL	.	.	.	16e-LL	.	16b--LL	pa	.	.	.	.	.	.	.
.	16B-	.	.	.	16e-	.	16a-	la	.	.	.	.	.	.	.
.	16B-	.	.	.	16e-	.	16g-	pa	.	.	.	.	.	.	.
16E-Jk	[16B-JJ	.	.	.	[16e-JJ	.	[16a-JJ	la	.	.	.	.	.	.	.
=113	=113	=113	=113	=113	=113	=113	=113	=113	=113	=113	=113	=113	=113	=113	=113
8.C-L	8B-L]	.	.	.	8e-L]	.	8a-L]	pa	.	1r	.	1r	.	.	.
.	8B-	.	.	.	8d-	.	8g-	pa	.	.	.	.	.	.	.
16GG-Jk	.	.	.	.	.	.	.	.	.	.	.	.	.	.	.
8.GG-L	8B-	.	.	.	8d-	.	8e-	pa	.	.	.	.	.	.	.
.	8B-J	.	.	.	8d-J	.	8g-J	la	.	.	.	.	.	.	.
16BB-Jk	.	.	.	.	.	.	.	.	.	.	.	.	.	.	.
8.BB-L	4dn	.	.	.	4f	.	4b-	wa	.	.	.	.	.	.	.
16FFJk	.	.	.	.	.	.	.	.	.	.	.	.	.	.	.
8.FFL	4f	.	.	.	4a-	.	4ee--	.	.	.	.	.	.	.	.
16E-Jk	.	.	.	.	.	.	.	.	.	.	.	.	.	.	.
=114	=114	=114	=114	=114	=114	=114	=114	=114	=114	=114	=114	=114	=114	=114	=114
12E-L	1g-	.	.	.	1b-	.	1ee-	.	.	1r	.	1r	.	.	.
12E-	.	.	.	.	.	.	.	.	.	.	.	.	.	.	.
12E-J	.	.	.	.	.	.	.	.	.	.	.	.	.	.	.
8r	.	.	.	.	.	.	.	.	.	.	.	.	.	.	.
16E-LL	.	.	.	.	.	.	.	.	.	.	.	.	.	.	.
16E-JJ	.	.	.	.	.	.	.	.	.	.	.	.	.	.	.
8EE-	.	.	.	.	.	.	.	.	.	.	.	.	.	.	.
4E-	.	.	.	.	.	.	.	.	.	.	.	.	.	.	.
[8C-	.	.	.	.	.	.	.	.	.	.	.	.	.	.	.
=115||	=115||	=115||	=115||	=115||	=115||	=115||	=115||	=115||	=115||	=115||	=115||	=115||	=115||	=115||	=115||
8.C-L]	4r	.	.	.	4r	.	4r	.	.	1r	.	1r	.	.	.
16GG-Jk	.	.	.	.	.	.	.	.	.	.	.	.	.	.	.
8.GG-L	16G-LL	.	.	.	16B-LL	.	16e-LL	pa	.	.	.	.	.	.	.
.	16A-JJ	.	.	.	16c-JJ	.	16fJJ	la	.	.	.	.	.	.	.
.	16r	.	.	.	16r	.	16r	.	.	.	.	.	.	.	.
16BB-Jk	[16B-	.	.	.	[16e-	.	[16g-	pa	.	.	.	.	.	.	.
8.BB-L	8B-L]	.	.	.	8e-L]	.	8g-L]	.	.	.	.	.	.	.	.
.	8F	.	.	.	8B-	.	8e--	la	.	.	.	.	.	.	.
16FFJk	.	.	.	.	.	.	.	.	.	.	.	.	.	.	.
8.FFL	8c-	.	.	.	8g-	.	8b-	pa	.	.	.	.	.	.	.
.	8c-J	.	.	.	8e-J	.	8a-J	la	.	.	.	.	.	.	.
16E-Jk	.	.	.	.	.	.	.	.	.	.	.	.	.	.	.
=116	=116	=116	=116	=116	=116	=116	=116	=116	=116	=116	=116	=116	=116	=116	=116
8.E-L	4B-	.	.	.	4d-	.	4g-	pa	.	1r	.	1r	.	.	.
16BB-Jk	.	.	.	.	.	.	.	.	.	.	.	.	.	.	.
8.BB-L	4B-	.	.	.	4d-	.	4g-	pa	.	.	.	.	.	.	.
16GG-Jk	.	.	.	.	.	.	.	.	.	.	.	.	.	.	.
8.GG-L	16B-LL	.	.	.	16e-LL	.	16g-LL	pa	.	.	.	.	.	.	.
.	16B-	.	.	.	16e-	.	16a-	la	.	.	.	.	.	.	.
.	16B-	.	.	.	16e-	.	16b-	pa	.	.	.	.	.	.	.
16D-Jk	16B-JJ	.	.	.	16e-JJ	.	16g-JJ	la	.	.	.	.	.	.	.
8.D-L	16r	.	.	.	16r	.	16r	.	.	.	.	.	.	.	.
.	16c-KL	.	.	.	16e-KL	.	16a-KL	la	.	.	.	.	.	.	.
.	8G-J	.	.	.	8B-J	.	8e-J	pa	.	.	.	.	.	.	.
16E-Jk	.	.	.	.	.	.	.	.	.	.	.	.	.	.	.
=117	=117	=117	=117	=117	=117	=117	=117	=117	=117	=117	=117	=117	=117	=117	=117
8.C-L	8B-L	.	.	.	8e-L	.	8g-L	pa	.	1r	.	1r	.	.	.
.	8B-J	.	.	.	8c-J	.	8e-J	la	.	.	.	.	.	.	.
16GG-Jk	.	.	.	.	.	.	.	.	.	.	.	.	.	.	.
8.GG-L	16r	.	.	.	16r	.	16r	.	.	.	.	.	.	.	.
.	16B-	.	.	.	16e-	.	16g-	pa	.	.	.	.	.	.	.
.	8r	.	.	.	8r	.	8r	.	.	.	.	.	.	.	.
16BB-Jk	.	.	.	.	.	.	.	.	.	.	.	.	.	.	.
8.BB-L	8G-	.	.	.	8B-	.	8e--	pa	.	.	.	.	.	.	.
.	16r	.	.	.	16r	.	16r	.	.	.	.	.	.	.	.
16FFJk	[16B-	.	.	.	[16f	.	[16b-	pa	.	.	.	.	.	.	.
8.FFL	8B-L]	.	.	.	8fL]	.	8b-L]	.	.	.	.	.	.	.	.
.	8B-J	.	.	.	8e-J	.	8a-J	pa	.	.	.	.	.	.	.
16E-Jk	.	.	.	.	.	.	.	.	.	.	.	.	.	.	.
=118	=118	=118	=118	=118	=118	=118	=118	=118	=118	=118	=118	=118	=118	=118	=118
8.E-L	16r	.	.	.	16r	.	16r	.	.	1r	.	1r	.	.	.
.	16B-	.	.	.	16d-	.	16g-	la	.	.	.	.	.	.	.
.	16r	.	.	.	16r	.	16r	.	.	.	.	.	.	.	.
16BB-Jk	16B-	.	.	.	16d-	.	16g-	pa	.	.	.	.	.	.	.
4BB-	16r	.	.	.	16r	.	16r	.	.	.	.	.	.	.	.
.	16B-	.	.	.	16d-	.	16g-	pa	.	.	.	.	.	.	.
.	16r	.	.	.	16r	.	16r	.	.	.	.	.	.	.	.
.	16B-	.	.	.	16d-	.	16g-	pa	.	.	.	.	.	.	.
8.GG-L	4B-	.	.	.	4d-	.	4g-	fu	.	.	.	.	.	.	.
16D-Jk	.	.	.	.	.	.	.	.	.	.	.	.	.	.	.
4D-	4en	.	.	.	4g-	.	4b-	wa	.	.	.	.	.	.	.
=119	=119	=119	=119	=119	=119	=119	=119	=119	=119	=119	=119	=119	=119	=119	=119
8.C-L	4r	.	.	.	4r	.	4r	.	.	4b-	さ	4b-	さ	.	.
16GG-Jk	.	.	.	.	.	.	.	.	.	.	.	.	.	.	.
8.GG-L	16G-LL	.	.	.	16B-LL	.	16e-LL	pa	.	4g-	よ	4g-	よ	.	.
.	16A-JJ	.	.	.	16c-JJ	.	16fJJ	la	.	.	.	.	.	.	.
.	16r	.	.	.	16r	.	16r	.	.	.	.	.	.	.	.
16BB-Jk	[16B-	.	.	.	[16e-	.	[16g-	pa	.	.	.	.	.	.	.
8.BB-L	8B-L]	.	.	.	8e-L]	.	8g-L]	.	.	8.a-L	な	8.a-L	な	.	.
.	8F	.	.	.	8B-	.	8e--	la	.	.	.	.	.	.	.
16FFJk	.	.	.	.	.	.	.	.	.	[16fJk	ら	[16fJk	ら	.	.
8.FFL	8F	.	.	.	8B-	.	8B-	pa	.	8fL]	.	8fL]	.	.	.
.	8c-J	.	.	.	8e-J	.	8a-J	la	.	8g-J	は	8g-J	は	.	.
16E-Jk	.	.	.	.	.	.	.	.	.	.	.	.	.	.	.
=120	=120	=120	=120	=120	=120	=120	=120	=120	=120	=120	=120	=120	=120	=120	=120
8.E-L	4B-	.	.	.	4d-	.	4b-	pa	.	8b-L	じ	8b-L	じ	.	.
.	.	.	.	.	.	.	.	.	.	8g-J	め	8g-J	め	.	.
16BB-Jk	.	.	.	.	.	.	.	.	.	.	.	.	.	.	.
8.BB-L	8.B-L	.	.	.	8.d-L	.	8.g-L	pa	.	8.a-L	ま	8.a-L	ま	.	.
16GG-Jk	[16G-Jk	.	.	.	[16B-Jk	.	[16e-Jk	.	.	[16e-Jk	して	[16e-Jk	して	.	.
8.GG-L	8G-]	.	.	.	8B-]	.	8e-]	pa	.	2e-]	.	2e-]	.	.	.
.	8r	.	.	.	8r	.	8r	.	.	.	.	.	.	.	.
16D-Jk	.	.	.	.	.	.	.	.	.	.	.	.	.	.	.
8.D-L	16B-LL	.	.	.	16e-LL	.	16b--LL	pa	.	.	.	.	.	.	.
.	16B-	.	.	.	16e-	.	16a-	la	.	.	.	.	.	.	.
.	16B-	.	.	.	16e-	.	16g-	pa	.	.	.	.	.	.	.
16E-Jk	[16B-JJ	.	.	.	[16e-JJ	.	[16a-JJ	la	.	.	.	.	.	.	.
=121	=121	=121	=121	=121	=121	=121	=121	=121	=121	=121	=121	=121	=121	=121	=121
8.C-L	8B-L]	.	.	.	8e-L]	.	8a-L]	pa	.	1r	.	1r	.	.	.
.	8B-	.	.	.	8d-	.	8g-	pa	.	.	.	.	.	.	.
16GG-Jk	.	.	.	.	.	.	.	.	.	.	.	.	.	.	.
8.GG-L	8B-	.	.	.	8d-	.	8e-	pa	.	.	.	.	.	.	.
.	8B-J	.	.	.	8d-J	.	8g-J	la	.	.	.	.	.	.	.
16BB-Jk	.	.	.	.	.	.	.	.	.	.	.	.	.	.	.
8.BB-L	4dn	.	.	.	4f	.	4b-	wa-	.	.	.	.	.	.	.
16FFJk	.	.	.	.	.	.	.	.	.	.	.	.	.	.	.
8.FFL	4A-	.	.	.	4e--	.	4f	.	.	.	.	.	.	.	.
16E-Jk	.	.	.	.	.	.	.	.	.	.	.	.	.	.	.
=122	=122	=122	=122	=122	=122	=122	=122	=122	=122	=122	=122	=122	=122	=122	=122
16E-LL	12r	.	.	.	12r	.	12r	.	.	1r	.	1r	.	.	.
16A-	.	.	.	.	.	.	.	.	.	.	.	.	.	.	.
.	12g-L	.	.	.	12b-L	.	12ee-L	-pa	.	.	.	.	.	.	.
16A-	.	.	.	.	.	.	.	.	.	.	.	.	.	.	.
.	12g-J	.	.	.	12b-J	.	12ee-J	la	.	.	.	.	.	.	.
16G-JJ	.	.	.	.	.	.	.	.	.	.	.	.	.	.	.
16E-LL	12r	.	.	.	12r	.	12r	.	.	.	.	.	.	.	.
16A-	.	.	.	.	.	.	.	.	.	.	.	.	.	.	.
.	12g-	.	.	.	12b-	.	12ee-	pa	.	.	.	.	.	.	.
16A-	.	.	.	.	.	.	.	.	.	.	.	.	.	.	.
.	12r	.	.	.	12r	.	12r	.	.	.	.	.	.	.	.
16A-JJ	.	.	.	.	.	.	.	.	.	.	.	.	.	.	.
16A-LL	12g-	.	.	.	12b-	.	12ee-	pa	.	.	.	.	.	.	.
16G-	.	.	.	.	.	.	.	.	.	.	.	.	.	.	.
.	12r	.	.	.	12r	.	12r	.	.	.	.	.	.	.	.
16E-	.	.	.	.	.	.	.	.	.	.	.	.	.	.	.
.	12g-	.	.	.	12b-	.	12ee-	pa	.	.	.	.	.	.	.
16G-JJ	.	.	.	.	.	.	.	.	.	.	.	.	.	.	.
16E-LL	4g-	.	.	.	4b-	.	4ee-	pa	.	.	.	.	.	.	.
16A-	.	.	.	.	.	.	.	.	.	.	.	.	.	.	.
16A-	.	.	.	.	.	.	.	.	.	.	.	.	.	.	.
16E-JJ	.	.	.	.	.	.	.	.	.	.	.	.	.	.	.
=123	=123	=123	=123	=123	=123	=123	=123	=123	=123	=123	=123	=123	=123	=123	=123
4C-	4r	.	.	.	4r	.	4r	.	.	1r	.	1r	.	.	.
8.GG-L	16G-LL	.	.	.	16B-LL	.	16e-LL	pa	.	.	.	.	.	.	.
.	16A-JJ	.	.	.	16c-JJ	.	16fJJ	la	.	.	.	.	.	.	.
.	16r	.	.	.	16r	.	16r	.	.	.	.	.	.	.	.
16BB-Jk	[16B-	.	.	.	[16e-	.	[16g-	pa	.	.	.	.	.	.	.
8.BB-L	8B-L]	.	.	.	8e-L]	.	8g-L]	.	.	.	.	.	.	.	.
.	8F	.	.	.	8B-	.	8e--	la	.	.	.	.	.	.	.
16FFJk	.	.	.	.	.	.	.	.	.	.	.	.	.	.	.
8.FFL	8c-	.	.	.	8g-	.	8b-	pa	.	.	.	.	.	.	.
.	8c-J	.	.	.	8e-J	.	8a-J	la	.	.	.	.	.	.	.
16E-Jk	.	.	.	.	.	.	.	.	.	.	.	.	.	.	.
=124	=124	=124	=124	=124	=124	=124	=124	=124	=124	=124	=124	=124	=124	=124	=124
8.E-L	4B-	.	.	.	4d-	.	4g-	pa	.	1r	.	1r	.	.	.
16BB-Jk	.	.	.	.	.	.	.	.	.	.	.	.	.	.	.
8.BB-L	4B-	.	.	.	4d-	.	4g-	pa	.	.	.	.	.	.	.
16GG-Jk	.	.	.	.	.	.	.	.	.	.	.	.	.	.	.
8.GG-L	16B-LL	.	.	.	16e-LL	.	16g-LL	pa	.	.	.	.	.	.	.
.	16B-	.	.	.	16e-	.	16a-	la	.	.	.	.	.	.	.
.	16B-	.	.	.	16e-	.	16b-	pa	.	.	.	.	.	.	.
16D-Jk	16B-JJ	.	.	.	16e-JJ	.	16g-JJ	la	.	.	.	.	.	.	.
8.D-L	16r	.	.	.	16r	.	16r	.	.	.	.	.	.	.	.
.	16c-KL	.	.	.	16e-KL	.	16a-KL	la	.	.	.	.	.	.	.
.	8G-J	.	.	.	8B-J	.	8e-J	pa	.	.	.	.	.	.	.
16E-Jk	.	.	.	.	.	.	.	.	.	.	.	.	.	.	.
=125	=125	=125	=125	=125	=125	=125	=125	=125	=125	=125	=125	=125	=125	=125	=125
8.C-L	8B-L	.	.	.	8e-L	.	8g-L	pa	.	1r	.	1r	.	.	.
.	8B-J	.	.	.	8c-J	.	8e-J	la	.	.	.	.	.	.	.
16GG-Jk	.	.	.	.	.	.	.	.	.	.	.	.	.	.	.
8.GG-L	16r	.	.	.	16r	.	16r	.	.	.	.	.	.	.	.
.	16B-	.	.	.	16e-	.	16g-	pa	.	.	.	.	.	.	.
.	8r	.	.	.	8r	.	8r	.	.	.	.	.	.	.	.
16BB-Jk	.	.	.	.	.	.	.	.	.	.	.	.	.	.	.
8.BB-L	8G-	.	.	.	8B-	.	8e--	pa	.	.	.	.	.	.	.
.	16r	.	.	.	16r	.	16r	.	.	.	.	.	.	.	.
16FFJk	[16B-	.	.	.	[16f	.	[16b-	pa	.	.	.	.	.	.	.
8.FFL	8B-L]	.	.	.	8fL]	.	8b-L]	.	.	.	.	.	.	.	.
.	8B-J	.	.	.	8e-J	.	8a-J	pa	.	.	.	.	.	.	.
16E-Jk	.	.	.	.	.	.	.	.	.	.	.	.	.	.	.
=126	=126	=126	=126	=126	=126	=126	=126	=126	=126	=126	=126	=126	=126	=126	=126
8.E-L	16r	.	.	.	16r	.	16r	.	.	1r	.	1r	.	.	.
.	16B-	.	.	.	16d-	.	16g-	la	.	.	.	.	.	.	.
.	16r	.	.	.	16r	.	16r	.	.	.	.	.	.	.	.
16BB-Jk	16B-	.	.	.	16d-	.	16g-	pa	.	.	.	.	.	.	.
4BB-	16r	.	.	.	16r	.	16r	.	.	.	.	.	.	.	.
.	16B-	.	.	.	16d-	.	16g-	pa	.	.	.	.	.	.	.
.	16r	.	.	.	16r	.	16r	.	.	.	.	.	.	.	.
.	16B-	.	.	.	16d-	.	16g-	pa	.	.	.	.	.	.	.
8.GG-L	4B-	.	.	.	4d-	.	4g-	fu	.	.	.	.	.	.	.
16D-Jk	.	.	.	.	.	.	.	.	.	.	.	.	.	.	.
4D-	4en	.	.	.	4g-	.	4b-	wa	.	.	.	.	.	.	.
=127	=127	=127	=127	=127	=127	=127	=127	=127	=127	=127	=127	=127	=127	=127	=127
8.C-L	4r	.	.	.	4r	.	4r	.	.	1r	.	1r	.	.	.
16GG-Jk	.	.	.	.	.	.	.	.	.	.	.	.	.	.	.
8.GG-L	16G-LL	.	.	.	16B-LL	.	16e-LL	pa	.	.	.	.	.	.	.
.	16A-JJ	.	.	.	16c-JJ	.	16fJJ	la	.	.	.	.	.	.	.
.	16r	.	.	.	16r	.	16r	.	.	.	.	.	.	.	.
16BB-Jk	[16B-	.	.	.	[16e-	.	[16g-	pa	.	.	.	.	.	.	.
8.BB-L	8B-L]	.	.	.	8e-L]	.	8g-L]	.	.	.	.	.	.	.	.
.	8F	.	.	.	8B-	.	8e--	la	.	.	.	.	.	.	.
16FFJk	.	.	.	.	.	.	.	.	.	.	.	.	.	.	.
8.FFL	8F	.	.	.	8B-	.	8B-	pa	.	.	.	.	.	.	.
.	8c-J	.	.	.	8e-J	.	8a-J	la	.	.	.	.	.	.	.
16E-Jk	.	.	.	.	.	.	.	.	.	.	.	.	.	.	.
=128	=128	=128	=128	=128	=128	=128	=128	=128	=128	=128	=128	=128	=128	=128	=128
8.E-L	4B-	.	.	.	4d-	.	4b-	pa	.	1r	.	1r	.	.	.
16BB-Jk	.	.	.	.	.	.	.	.	.	.	.	.	.	.	.
8.BB-L	8.B-L	.	.	.	8.d-L	.	8.g-L	pa	.	.	.	.	.	.	.
16GG-Jk	[16G-Jk	.	.	.	[16B-Jk	.	[16e-Jk	.	.	.	.	.	.	.	.
8.GG-L	8G-]	.	.	.	8B-]	.	8e-]	pa	.	.	.	.	.	.	.
.	8r	.	.	.	8r	.	8r	.	.	.	.	.	.	.	.
16D-Jk	.	.	.	.	.	.	.	.	.	.	.	.	.	.	.
8.D-L	16B-LL	.	.	.	16e-LL	.	16b--LL	pa	.	.	.	.	.	.	.
.	16B-	.	.	.	16e-	.	16a-	la	.	.	.	.	.	.	.
.	16B-	.	.	.	16e-	.	16g-	pa	.	.	.	.	.	.	.
16E-Jk	[16B-JJ	.	.	.	[16e-JJ	.	[16a-JJ	la	.	.	.	.	.	.	.
=129	=129	=129	=129	=129	=129	=129	=129	=129	=129	=129	=129	=129	=129	=129	=129
8.C-L	8B-L]	.	.	.	8e-L]	.	8a-L]	pa	.	1r	.	1r	.	.	.
.	8B-	.	.	.	8d-	.	8g-	pa	.	.	.	.	.	.	.
16GG-Jk	.	.	.	.	.	.	.	.	.	.	.	.	.	.	.
8.GG-L	8B-	.	.	.	8d-	.	8e-	pa	.	.	.	.	.	.	.
.	8B-J	.	.	.	8d-J	.	8g-J	la	.	.	.	.	.	.	.
16BB-Jk	.	.	.	.	.	.	.	.	.	.	.	.	.	.	.
8.BB-L	4dn	.	.	.	4f	.	4b-	wa-	.	.	.	.	.	.	.
16FFJk	.	.	.	.	.	.	.	.	.	.	.	.	.	.	.
8.FFL	4f	.	.	.	4a-	.	4ee--	.	.	.	.	.	.	.	.
16E-Jk	.	.	.	.	.	.	.	.	.	.	.	.	.	.	.
=130	=130	=130	=130	=130	=130	=130	=130	=130	=130	=130	=130	=130	=130	=130	=130
4E-	12r	.	.	.	12r	.	12r	.	.	12r	.	1r	.	.	.
.	12g-L	.	.	.	12b-L	.	12ee-L	-pa	.	12d-L	.	.	.	.	.
.	12g-J	.	.	.	12b-J	.	12ee-J	la	.	12d-J	.	.	.	.	.
12C-L	12r	.	.	.	12r	.	12r	.	.	12r	.	.	.	.	.
12DnJ	12g-	.	.	.	12b-	.	12ee-	pa	.	12d-	.	.	.	.	.
12r	12r	.	.	.	12r	.	12r	.	.	12r	.	.	.	.	.
4E-	12g-	.	.	.	12b-	.	12ee-	pa	.	12d-	.	.	.	.	.
.	12r	.	.	.	12r	.	12r	.	.	12r	.	.	.	.	.
.	12g-	.	.	.	12b-	.	12ee-	pa	.	12d-	.	.	.	.	.
4EE-	4g-	.	.	.	4b-	.	4ee-	pa	.	4d-	.	.	.	.	.
==	==	==	==	==	==	==	==	==	==	==	==	==	==	==	==
*-	*-	*-	*-	*-	*-	*-	*-	*-	*-	*-	*-	*-	*-	*-	*-
